;FLAVOR:Marlin
;TIME:7138
;Filament used: 4.4764m
;Layer height: 0.16
;MINX:84.713
;MINY:67.1
;MINZ:0.2
;MAXX:135.287
;MAXY:154.154
;MAXZ:35.36
;Generated with Cura_SteamEngine 4.8.0
M140 S60
M105
M190 S60
M104 S205
M105
M109 S205
M82 ;absolute extrusion mode
;Generated with Cura_SteamEngine master
M140 S60
M105
M190 S60
M104 S205
M105
M109 S205
M82 ;absolute extrusion mode
; Ender 3 Custom Start G-code
G28 ; Home all axes
G92 E0 ; Reset Extruder
G1 Z2.0 F3000 ; Move Z Axis up little to prevent scratching of Heat Bed
G1 X0.1 Y20 Z0.3 F5000.0 ; Move to start position
G1 X0.1 Y200.0 Z0.3 F1500.0 E15 ; Draw the first line
G1 X0.4 Y200.0 Z0.3 F5000.0 ; Move to side a little
G1 X0.4 Y20 Z0.3 F1500.0 E30 ; Draw the second line
G92 E0 ; Reset Extruder
G1 Z2.0 F3000 ; Move Z Axis up little to prevent scratching of Heat Bed
; End of custom start GCode
G92 E0
G92 E0
G1 F2700 E-5
;LAYER_COUNT:184
;LAYER:0
M107
G0 F6000 X94.145 Y77.561 Z0.2
;TYPE:SKIRT
G1 F2700 E0
G1 F1200 X94.356 Y77.306 E0.01101
G1 X94.627 Y76.992 E0.0248
G1 X94.94 Y76.642 E0.04042
G1 X95.806 Y75.691 E0.0832
G1 X96.332 Y75.128 E0.10883
G1 X96.559 Y74.893 E0.11969
G1 X96.883 Y74.571 E0.13489
G1 X97.197 Y74.271 E0.14933
G1 X98.125 Y73.397 E0.19173
G1 X98.71 Y72.86 E0.21814
G1 X98.99 Y72.612 E0.23058
G1 X99.261 Y72.383 E0.24238
G1 X99.588 Y72.115 E0.25645
G1 X100.666 Y71.246 E0.3025
G1 X101.237 Y70.799 E0.32662
G1 X101.485 Y70.611 E0.33697
G1 X101.859 Y70.339 E0.35235
G1 X102.197 Y70.103 E0.36606
G1 X103.316 Y69.335 E0.4112
G1 X103.898 Y68.947 E0.43447
G1 X104.7 Y68.461 E0.46566
G1 X105.54 Y68.045 E0.49683
G1 X106.413 Y67.701 E0.52804
G1 X107.312 Y67.433 E0.55924
G1 X108.23 Y67.243 E0.59042
G1 X109.162 Y67.132 E0.62164
G1 X110.099 Y67.1 E0.65282
G1 X111.036 Y67.149 E0.68403
G1 X111.965 Y67.277 E0.71522
G1 X112.88 Y67.484 E0.74642
G1 X113.773 Y67.767 E0.77758
G1 X114.64 Y68.126 E0.80879
G1 X115.473 Y68.558 E0.84
G1 X115.988 Y68.872 E0.86006
G1 X116.307 Y69.079 E0.87271
G1 X116.548 Y69.24 E0.88235
G1 X117.647 Y69.995 E0.9267
G1 X118.341 Y70.486 E0.95497
G1 X118.574 Y70.656 E0.96457
G1 X118.976 Y70.96 E0.98133
G1 X119.238 Y71.168 E0.99246
G1 X120.385 Y72.093 E1.04147
G1 X120.881 Y72.505 E1.06291
G1 X121.166 Y72.751 E1.07543
G1 X121.478 Y73.031 E1.08938
G1 X121.863 Y73.386 E1.10679
G1 X122.747 Y74.221 E1.14724
G1 X123.307 Y74.762 E1.17314
G1 X123.554 Y75.008 E1.18473
G1 X123.818 Y75.284 E1.19744
G1 X124.159 Y75.651 E1.2141
G1 X125.031 Y76.611 E1.25723
G1 X125.51 Y77.152 E1.28127
G1 X125.739 Y77.419 E1.29297
G1 X125.989 Y77.723 E1.30606
G1 X126.302 Y78.117 E1.32279
G1 X127.114 Y79.163 E1.36684
G1 X127.531 Y79.714 E1.38982
G1 X127.715 Y79.964 E1.40014
G1 X127.972 Y80.33 E1.41502
G1 X128.236 Y80.721 E1.43071
G1 X128.972 Y81.835 E1.47512
G1 X129.363 Y82.444 E1.49919
G1 X129.534 Y82.718 E1.50993
G1 X129.626 Y82.871 E1.51587
G1 X129.763 Y83.106 E1.52492
G1 X129.96 Y83.454 E1.53822
G1 X130.647 Y84.69 E1.58525
G1 X130.951 Y85.253 E1.60653
G1 X131.12 Y85.578 E1.61871
G1 X131.331 Y86.008 E1.63464
G1 X131.475 Y86.316 E1.64595
G1 X132.05 Y87.569 E1.69181
G1 X132.344 Y88.231 E1.7159
G1 X132.46 Y88.502 E1.7257
G1 X132.533 Y88.679 E1.73207
G1 X132.649 Y88.973 E1.74258
G1 X132.793 Y89.352 E1.75607
G1 X133.284 Y90.682 E1.80322
G1 X133.506 Y91.312 E1.82544
G1 X133.608 Y91.618 E1.83617
G1 X133.736 Y92.025 E1.85036
G1 X133.872 Y92.488 E1.86641
G1 X134.193 Y93.616 E1.90541
G1 X134.412 Y94.428 E1.93339
G1 X134.484 Y94.707 E1.94297
G1 X134.538 Y94.931 E1.95063
G1 X134.602 Y95.216 E1.96035
G1 X134.69 Y95.632 E1.97449
G1 X134.953 Y96.935 E2.0187
G1 X135.082 Y97.615 E2.04172
G1 X135.218 Y98.543 E2.07292
G1 X135.274 Y99.499 E2.10477
G1 X135.287 Y100.461 E2.13677
G1 X135.287 Y109.88 E2.45005
G1 X135.282 Y111.057 E2.48919
G1 X135.287 Y111.709 E2.51088
G1 X135.286 Y121.029 E2.82086
G1 X135.276 Y121.722 E2.84392
G1 X135.222 Y122.658 E2.8751
G1 X135.091 Y123.575 E2.90591
G1 X134.914 Y124.522 E2.93795
G1 X134.706 Y125.543 E2.97261
G1 X134.542 Y126.302 E2.99843
G1 X134.446 Y126.707 E3.01228
G1 X134.363 Y127.027 E3.02327
G1 X134.258 Y127.413 E3.03658
G1 X133.864 Y128.793 E3.08431
G1 X133.67 Y129.439 E3.10675
G1 X133.522 Y129.9 E3.12285
G1 X133.424 Y130.186 E3.1329
G1 X133.288 Y130.565 E3.1463
G1 X132.799 Y131.887 E3.19318
G1 X132.549 Y132.533 E3.21622
G1 X132.422 Y132.847 E3.22748
G1 X132.276 Y133.185 E3.23973
G1 X132.073 Y133.64 E3.2563
G1 X131.506 Y134.872 E3.30141
G1 X131.203 Y135.506 E3.32478
G1 X131.072 Y135.771 E3.33461
G1 X130.982 Y135.947 E3.34119
G1 X130.858 Y136.182 E3.35002
G1 X130.677 Y136.514 E3.3626
G1 X129.986 Y137.754 E3.40981
G1 X129.642 Y138.353 E3.43279
G1 X129.475 Y138.634 E3.44366
G1 X129.238 Y139.015 E3.45858
G1 X129.02 Y139.351 E3.47191
G1 X128.245 Y140.522 E3.51861
G1 X127.849 Y141.102 E3.54197
G1 X127.665 Y141.362 E3.55256
G1 X127.389 Y141.737 E3.56805
G1 X127.145 Y142.054 E3.58136
G1 X126.295 Y143.145 E3.62736
G1 X125.856 Y143.693 E3.65071
G1 X125.661 Y143.93 E3.66092
G1 X125.373 Y144.264 E3.67559
G1 X125.06 Y144.614 E3.6912
G1 X124.191 Y145.568 E3.73412
G1 X123.673 Y146.122 E3.75935
G1 X123.351 Y146.454 E3.77473
G1 X123.117 Y146.685 E3.78567
G1 X122.798 Y146.99 E3.80035
G1 X121.875 Y147.857 E3.84247
G1 X121.289 Y148.395 E3.86892
G1 X121.009 Y148.644 E3.88139
G1 X120.755 Y148.859 E3.89246
G1 X120.412 Y149.141 E3.90722
G1 X119.342 Y150.003 E3.95292
G1 X118.776 Y150.447 E3.97685
G1 X118.482 Y150.67 E3.98912
G1 X118.169 Y150.896 E4.00196
G1 X117.803 Y151.153 E4.01684
G1 X116.674 Y151.926 E4.06235
G1 X116.094 Y152.312 E4.08552
G1 X115.292 Y152.798 E4.11671
G1 X114.452 Y153.214 E4.14789
G1 X113.578 Y153.557 E4.17912
G1 X112.679 Y153.824 E4.21031
G1 X111.761 Y154.013 E4.24148
G1 X110.83 Y154.124 E4.27267
G1 X109.892 Y154.154 E4.30388
G1 X108.956 Y154.105 E4.33505
G1 X108.027 Y153.977 E4.36624
G1 X107.112 Y153.769 E4.39745
G1 X106.218 Y153.485 E4.42865
G1 X105.352 Y153.125 E4.45985
G1 X104.52 Y152.693 E4.49103
G1 X104.023 Y152.389 E4.5104
G1 X103.731 Y152.2 E4.52197
G1 X103.488 Y152.039 E4.53167
G1 X102.34 Y151.252 E4.57796
G1 X101.677 Y150.783 E4.60497
G1 X101.445 Y150.614 E4.61452
G1 X101.25 Y150.468 E4.62262
G1 X101.03 Y150.299 E4.63185
G1 X100.668 Y150.013 E4.64719
G1 X99.604 Y149.153 E4.69269
G1 X99.108 Y148.74 E4.71416
G1 X98.887 Y148.551 E4.72383
G1 X98.714 Y148.399 E4.73149
G1 X98.521 Y148.225 E4.74014
G1 X98.136 Y147.87 E4.75755
G1 X97.245 Y147.028 E4.79833
G1 X96.685 Y146.486 E4.82425
G1 X96.444 Y146.246 E4.83556
G1 X96.182 Y145.972 E4.84817
G1 X95.841 Y145.605 E4.86483
G1 X94.97 Y144.646 E4.90792
G1 X94.49 Y144.104 E4.932
G1 X94.256 Y143.83 E4.94399
G1 X94.011 Y143.533 E4.95679
G1 X93.698 Y143.139 E4.97353
G1 X92.887 Y142.094 E5.01752
G1 X92.454 Y141.522 E5.04138
G1 X92.233 Y141.221 E5.0538
G1 X92.028 Y140.926 E5.06575
G1 X91.764 Y140.535 E5.08144
G1 X91.025 Y139.417 E5.12602
G1 X90.628 Y138.798 E5.15048
G1 X90.46 Y138.528 E5.16105
G1 X90.237 Y138.15 E5.17565
G1 X90.04 Y137.802 E5.18895
G1 X89.345 Y136.552 E5.23652
G1 X89.034 Y135.974 E5.25835
G1 X88.882 Y135.681 E5.26933
G1 X88.784 Y135.485 E5.27662
G1 X88.669 Y135.248 E5.28538
G1 X88.525 Y134.94 E5.29669
G1 X87.943 Y133.672 E5.34309
G1 X87.64 Y132.987 E5.368
G1 X87.519 Y132.702 E5.3783
G1 X87.359 Y132.302 E5.39263
G1 X87.207 Y131.903 E5.40683
G1 X86.723 Y130.592 E5.45331
G1 X86.499 Y129.96 E5.47561
G1 X86.371 Y129.577 E5.48905
G1 X86.264 Y129.231 E5.50109
G1 X86.128 Y128.769 E5.51711
G1 X85.802 Y127.624 E5.55671
G1 X85.585 Y126.817 E5.5845
G1 X85.515 Y126.541 E5.59397
G1 X85.465 Y126.333 E5.60109
G1 X85.401 Y126.051 E5.6107
G1 X85.304 Y125.591 E5.62634
G1 X85.052 Y124.35 E5.66846
G1 X84.916 Y123.63 E5.69283
G1 X84.782 Y122.702 E5.72401
G1 X84.726 Y121.753 E5.75563
G1 X84.713 Y120.788 E5.78773
G1 X84.713 Y111.375 E6.10081
G1 X84.718 Y110.198 E6.13996
G1 X84.713 Y109.546 E6.16164
G1 X84.714 Y100.227 E6.47159
G1 X84.724 Y99.532 E6.49471
G1 X84.778 Y98.595 E6.52593
G1 X84.909 Y97.675 E6.55684
G1 X85.081 Y96.761 E6.58777
G1 X85.31 Y95.635 E6.62599
G1 X85.454 Y94.971 E6.64859
G1 X85.542 Y94.597 E6.66137
G1 X85.647 Y94.192 E6.67528
G1 X85.741 Y93.849 E6.68711
G1 X86.134 Y92.468 E6.73487
G1 X86.331 Y91.811 E6.75768
G1 X86.427 Y91.509 E6.76822
G1 X86.576 Y91.07 E6.78364
G1 X86.712 Y90.691 E6.79703
G1 X87.198 Y89.377 E6.84363
G1 X87.447 Y88.732 E6.86662
G1 X87.577 Y88.41 E6.87817
G1 X87.729 Y88.058 E6.89093
G1 X87.927 Y87.616 E6.90703
G1 X88.495 Y86.382 E6.95222
G1 X88.802 Y85.74 E6.97589
G1 X88.934 Y85.473 E6.98579
G1 X89.142 Y85.074 E7.00076
G1 X89.323 Y84.742 E7.01333
G1 X90.014 Y83.502 E7.06055
G1 X90.358 Y82.903 E7.08352
G1 X90.525 Y82.622 E7.0944
G1 X90.762 Y82.241 E7.10932
G1 X90.98 Y81.905 E7.12264
G1 X91.757 Y80.732 E7.16944
G1 X92.156 Y80.148 E7.19296
G1 X92.335 Y79.893 E7.20332
G1 X92.446 Y79.74 E7.20961
G1 X92.611 Y79.519 E7.21878
G1 X92.855 Y79.202 E7.23209
G1 X93.703 Y78.113 E7.278
G1 X94.145 Y77.561 E7.30152
G0 F6000 X94.458 Y77.811
G1 F1200 X94.66 Y77.565 E7.3121
G1 X94.925 Y77.258 E7.32559
G1 X95.235 Y76.912 E7.34104
G1 X96.098 Y75.965 E7.38366
G1 X96.624 Y75.402 E7.40928
G1 X96.843 Y75.174 E7.4198
G1 X96.961 Y75.055 E7.42537
G1 X97.16 Y74.86 E7.43464
G1 X97.472 Y74.562 E7.44899
G1 X98.396 Y73.692 E7.4912
G1 X98.981 Y73.155 E7.51761
G1 X99.251 Y72.916 E7.52961
G1 X99.516 Y72.692 E7.54115
G1 X99.839 Y72.426 E7.55506
G1 X100.913 Y71.561 E7.60093
G1 X101.484 Y71.114 E7.62505
G1 X101.722 Y70.933 E7.63499
G1 X102.088 Y70.667 E7.65004
G1 X102.424 Y70.433 E7.66366
G1 X103.538 Y69.668 E7.70861
G1 X104.12 Y69.28 E7.73187
G1 X104.908 Y68.803 E7.76251
G1 X105.734 Y68.397 E7.79312
G1 X106.592 Y68.063 E7.82374
G1 X107.475 Y67.805 E7.85434
G1 X108.378 Y67.625 E7.88497
G1 X109.293 Y67.524 E7.91558
G1 X110.214 Y67.502 E7.94623
G1 X111.133 Y67.561 E7.97685
G1 X112.043 Y67.699 E8.00747
G1 X112.938 Y67.915 E8.03809
G1 X113.81 Y68.209 E8.0687
G1 X114.654 Y68.576 E8.09931
G1 X115.77 Y69.208 E8.14196
G1 X116.089 Y69.415 E8.15461
G1 X116.321 Y69.57 E8.16389
G1 X117.547 Y70.414 E8.2134
G1 X118.11 Y70.813 E8.23635
G1 X118.334 Y70.976 E8.24556
G1 X118.729 Y71.275 E8.26204
G1 X118.987 Y71.479 E8.27298
G1 X120.129 Y72.401 E8.3218
G1 X120.625 Y72.813 E8.34324
G1 X120.9 Y73.05 E8.35532
G1 X121.207 Y73.325 E8.36903
G1 X121.589 Y73.677 E8.3863
G1 X122.469 Y74.508 E8.42656
G1 X123.029 Y75.049 E8.45246
G1 X123.267 Y75.287 E8.46365
G1 X123.526 Y75.557 E8.4761
G1 X123.863 Y75.92 E8.49257
G1 X124.731 Y76.876 E8.53552
G1 X125.21 Y77.417 E8.55955
G1 X125.431 Y77.674 E8.57082
G1 X125.676 Y77.973 E8.58368
G1 X125.987 Y78.363 E8.60027
G1 X126.795 Y79.404 E8.6441
G1 X127.212 Y79.955 E8.66708
G1 X127.39 Y80.197 E8.67708
G1 X127.492 Y80.34 E8.68292
G1 X127.641 Y80.555 E8.69162
G1 X127.903 Y80.942 E8.70716
G1 X128.636 Y82.051 E8.75138
G1 X129.027 Y82.66 E8.77545
G1 X129.191 Y82.925 E8.78581
G1 X129.415 Y83.304 E8.80046
G1 X129.611 Y83.648 E8.81362
G1 X130.23 Y84.76 E8.85595
G1 X130.599 Y85.443 E8.88177
G1 X130.762 Y85.757 E8.89354
G1 X130.969 Y86.179 E8.90917
G1 X131.112 Y86.483 E8.92035
G1 X131.685 Y87.732 E8.96605
G1 X131.979 Y88.394 E8.99014
G1 X132.163 Y88.831 E9.00592
G1 X132.275 Y89.115 E9.01607
G1 X132.418 Y89.491 E9.02945
G1 X132.85 Y90.658 E9.07084
G1 X133.128 Y91.445 E9.0986
G1 X133.227 Y91.74 E9.10895
G1 X133.352 Y92.138 E9.12282
G1 X133.487 Y92.598 E9.13877
G1 X133.849 Y93.874 E9.18288
G1 X134.026 Y94.532 E9.20555
G1 X134.095 Y94.801 E9.21478
G1 X134.149 Y95.025 E9.22245
G1 X134.211 Y95.3 E9.23182
G1 X134.298 Y95.711 E9.2458
G1 X134.56 Y97.009 E9.28984
G1 X134.689 Y97.689 E9.31286
G1 X134.821 Y98.6 E9.34347
G1 X134.874 Y99.505 E9.37363
G1 X134.887 Y100.461 E9.40543
G1 X134.887 Y109.879 E9.71867
G1 X134.882 Y111.06 E9.75795
G1 X134.887 Y111.712 E9.77964
G1 X134.886 Y121.023 E10.08932
G1 X134.876 Y121.716 E10.11237
G1 X134.823 Y122.635 E10.14299
G1 X134.698 Y123.502 E10.17212
G1 X134.522 Y124.443 E10.20397
G1 X134.315 Y125.459 E10.23845
G1 X134.151 Y126.218 E10.26428
G1 X134.059 Y126.607 E10.27757
G1 X133.977 Y126.923 E10.28843
G1 X133.873 Y127.304 E10.30157
G1 X133.481 Y128.678 E10.34909
G1 X133.287 Y129.324 E10.37152
G1 X133.142 Y129.775 E10.38728
G1 X133.048 Y130.051 E10.39698
G1 X132.913 Y130.426 E10.41024
G1 X132.426 Y131.743 E10.45694
G1 X132.176 Y132.389 E10.47998
G1 X132.053 Y132.691 E10.49082
G1 X131.911 Y133.022 E10.5028
G1 X131.71 Y133.473 E10.51922
G1 X131.145 Y134.7 E10.56415
G1 X130.842 Y135.334 E10.58752
G1 X130.716 Y135.589 E10.59698
G1 X130.626 Y135.765 E10.60356
G1 X130.384 Y136.217 E10.62061
G1 X129.709 Y137.432 E10.66684
G1 X129.295 Y138.154 E10.69452
G1 X129.134 Y138.425 E10.70501
G1 X128.902 Y138.798 E10.71962
G1 X128.687 Y139.13 E10.73277
G1 X127.914 Y140.296 E10.7793
G1 X127.518 Y140.876 E10.80266
G1 X127.341 Y141.127 E10.81288
G1 X127.071 Y141.494 E10.82803
G1 X126.83 Y141.809 E10.84122
G1 X125.983 Y142.895 E10.88703
G1 X125.544 Y143.443 E10.91038
G1 X125.356 Y143.672 E10.92024
G1 X125.075 Y143.998 E10.93455
G1 X124.765 Y144.344 E10.95
G1 X123.899 Y145.295 E10.99278
G1 X123.381 Y145.849 E11.01801
G1 X123.066 Y146.173 E11.03304
G1 X122.84 Y146.396 E11.0436
G1 X122.523 Y146.699 E11.05818
G1 X121.605 Y147.562 E11.10009
G1 X121.019 Y148.1 E11.12655
G1 X120.748 Y148.34 E11.13859
G1 X120.5 Y148.551 E11.14942
G1 X120.161 Y148.83 E11.16402
G1 X119.095 Y149.688 E11.20953
G1 X118.529 Y150.132 E11.23346
G1 X118.245 Y150.347 E11.24531
G1 X117.939 Y150.569 E11.25788
G1 X117.577 Y150.823 E11.27259
G1 X116.453 Y151.593 E11.31791
G1 X115.873 Y151.979 E11.34108
G1 X115.085 Y152.456 E11.37172
G1 X114.259 Y152.862 E11.40233
G1 X113.4 Y153.195 E11.43297
G1 X112.516 Y153.452 E11.46359
G1 X111.613 Y153.631 E11.49421
G1 X110.698 Y153.732 E11.52483
G1 X109.778 Y153.753 E11.55543
G1 X108.859 Y153.693 E11.58606
G1 X107.949 Y153.555 E11.61668
G1 X107.054 Y153.337 E11.64731
G1 X106.182 Y153.043 E11.67792
G1 X105.338 Y152.675 E11.70855
G1 X104.24 Y152.054 E11.7505
G1 X103.948 Y151.865 E11.76207
G1 X103.714 Y151.709 E11.77142
G1 X102.43 Y150.827 E11.82323
G1 X101.908 Y150.457 E11.84452
G1 X101.685 Y150.294 E11.8537
G1 X101.49 Y150.148 E11.8618
G1 X101.278 Y149.985 E11.8707
G1 X100.919 Y149.701 E11.88592
G1 X99.86 Y148.846 E11.93119
G1 X99.364 Y148.433 E11.95266
G1 X98.978 Y148.098 E11.96966
G1 X98.792 Y147.931 E11.97797
G1 X98.41 Y147.579 E11.99525
G1 X97.523 Y146.741 E12.03584
G1 X96.963 Y146.199 E12.06176
G1 X96.731 Y145.967 E12.07267
G1 X96.474 Y145.699 E12.08502
G1 X96.137 Y145.336 E12.10149
G1 X95.27 Y144.381 E12.14439
G1 X94.79 Y143.839 E12.16847
G1 X94.564 Y143.575 E12.18003
G1 X94.324 Y143.283 E12.1926
G1 X94.013 Y142.893 E12.2092
G1 X93.205 Y141.853 E12.253
G1 X92.772 Y141.281 E12.27686
G1 X92.56 Y140.99 E12.28883
G1 X92.359 Y140.701 E12.30054
G1 X92.097 Y140.314 E12.31609
G1 X91.361 Y139.201 E12.36047
G1 X90.964 Y138.582 E12.38493
G1 X90.717 Y138.179 E12.40065
G1 X90.389 Y137.608 E12.42255
G1 X89.697 Y136.363 E12.46992
G1 X89.386 Y135.785 E12.49176
G1 X89.24 Y135.502 E12.50235
G1 X89.142 Y135.306 E12.50963
G1 X89.031 Y135.077 E12.5181
G1 X88.888 Y134.773 E12.52927
G1 X88.309 Y133.51 E12.57548
G1 X88.006 Y132.825 E12.6004
G1 X87.889 Y132.551 E12.61031
G1 X87.732 Y132.159 E12.62435
G1 X87.582 Y131.764 E12.6384
G1 X87.1 Y130.458 E12.68471
G1 X86.876 Y129.826 E12.70701
G1 X86.753 Y129.457 E12.71994
G1 X86.648 Y129.118 E12.73175
G1 X86.513 Y128.66 E12.74763
G1 X86.143 Y127.355 E12.79274
G1 X85.971 Y126.713 E12.81485
G1 X85.854 Y126.24 E12.83106
G1 X85.792 Y125.967 E12.84037
G1 X85.695 Y125.512 E12.85584
G1 X85.445 Y124.275 E12.89782
G1 X85.309 Y123.555 E12.92219
G1 X85.178 Y122.644 E12.9528
G1 X85.126 Y121.747 E12.98268
G1 X85.113 Y120.788 E13.01458
G1 X85.113 Y111.376 E13.32763
G1 X85.118 Y110.195 E13.36691
G1 X85.113 Y109.543 E13.38859
G1 X85.114 Y100.232 E13.69828
G1 X85.124 Y99.537 E13.7214
G1 X85.177 Y98.618 E13.75201
G1 X85.302 Y97.748 E13.78125
G1 X85.441 Y97.002 E13.80649
G1 X85.701 Y95.719 E13.85003
G1 X85.845 Y95.055 E13.87262
G1 X85.93 Y94.695 E13.88493
G1 X86.032 Y94.298 E13.89856
G1 X86.126 Y93.959 E13.91026
G1 X86.518 Y92.583 E13.95785
G1 X86.715 Y91.926 E13.98066
G1 X86.807 Y91.634 E13.99084
G1 X86.952 Y91.205 E14.00591
G1 X87.087 Y90.83 E14.01916
G1 X87.571 Y89.521 E14.06558
G1 X87.82 Y88.876 E14.08858
