;FLAVOR:Marlin
;TIME:2462
;Filament used: 1.38109m
;Layer height: 0.2
;MINX:86.4
;MINY:85
;MINZ:0.2
;MAXX:133.6
;MAXY:134.988
;MAXZ:31.2
;Generated with Cura_SteamEngine 4.8.0
M140 S60
M105
M190 S60
M104 S205
M105
M109 S205
M82 ;absolute extrusion mode
;Generated with Cura_SteamEngine master
M140 S60
M105
M190 S60
M104 S205
M105
M109 S205
M82 ;absolute extrusion mode
; Ender 3 Custom Start G-code
G28 ; Home all axes
G92 E0 ; Reset Extruder
G1 Z2.0 F3000 ; Move Z Axis up little to prevent scratching of Heat Bed
G1 X0.1 Y20 Z0.3 F5000.0 ; Move to start position
G1 X0.1 Y200.0 Z0.3 F1500.0 E15 ; Draw the first line
G1 X0.4 Y200.0 Z0.3 F5000.0 ; Move to side a little
G1 X0.4 Y20 Z0.3 F1500.0 E30 ; Draw the second line
G92 E0 ; Reset Extruder
G1 Z2.0 F3000 ; Move Z Axis up little to prevent scratching of Heat Bed
; End of custom start GCode
G92 E0
G92 E0
G1 F2700 E-5
;LAYER_COUNT:156
;LAYER:0
M107
G0 F6000 X89.61 Y88.252 Z0.2
;TYPE:SKIRT
G1 F2700 E0
G1 F1200 X90.299 Y87.616 E0.03119
G1 X91.04 Y87.041 E0.06238
G1 X91.827 Y86.531 E0.09357
G1 X92.655 Y86.09 E0.12478
G1 X93.517 Y85.721 E0.15596
G1 X94.408 Y85.427 E0.18717
G1 X95.32 Y85.209 E0.21836
G1 X96.247 Y85.071 E0.24953
G1 X97.101 Y85.013 E0.278
G1 X97.421 Y85.004 E0.28865
G1 X97.73 Y85 E0.29892
G1 X121.893 Y85 E1.10259
G1 X122.749 Y85.011 E1.13106
G1 X123.685 Y85.065 E1.16224
G1 X124.613 Y85.197 E1.19342
G1 X125.527 Y85.409 E1.22463
G1 X126.419 Y85.698 E1.25581
G1 X127.284 Y86.061 E1.28701
G1 X128.114 Y86.497 E1.3182
G1 X128.905 Y87.002 E1.34941
G1 X129.649 Y87.573 E1.3806
G1 X130.342 Y88.205 E1.4118
G1 X130.979 Y88.893 E1.44298
G1 X131.554 Y89.634 E1.47418
G1 X132.065 Y90.42 E1.50536
G1 X132.507 Y91.248 E1.53658
G1 X132.876 Y92.11 E1.56777
G1 X133.171 Y93 E1.59895
G1 X133.389 Y93.912 E1.63014
G1 X133.529 Y94.84 E1.66135
G1 X133.587 Y95.701 E1.69006
G1 X133.596 Y96.021 E1.7007
G1 X133.6 Y96.33 E1.71098
G1 X133.599 Y104.411 E1.97976
G1 X133.589 Y105.106 E2.00287
G1 X133.535 Y106.043 E2.03409
G1 X133.406 Y106.953 E2.06466
G1 X133.272 Y107.676 E2.08912
G1 X133.06 Y108.72 E2.12455
G1 X132.921 Y109.364 E2.14646
G1 X132.831 Y109.751 E2.15968
G1 X132.735 Y110.121 E2.17239
G1 X132.608 Y110.584 E2.18836
G1 X132.324 Y111.579 E2.22277
G1 X132.128 Y112.235 E2.24555
G1 X132.019 Y112.577 E2.25748
G1 X131.87 Y113.017 E2.27294
G1 X131.753 Y113.344 E2.28449
G1 X131.349 Y114.437 E2.32324
G1 X131.1 Y115.082 E2.34624
G1 X130.976 Y115.389 E2.35725
G1 X130.811 Y115.772 E2.37112
G1 X130.62 Y116.198 E2.38665
G1 X130.173 Y117.169 E2.4222
G1 X129.888 Y117.767 E2.44424
G1 X129.749 Y118.048 E2.45466
G1 X129.642 Y118.257 E2.46247
G1 X129.337 Y118.826 E2.48395
G1 X128.794 Y119.798 E2.52098
G1 X128.437 Y120.418 E2.54477
G1 X128.192 Y120.826 E2.5606
G1 X128.016 Y121.106 E2.5716
G1 X127.851 Y121.36 E2.58168
G1 X127.303 Y122.188 E2.6147
G1 X126.805 Y122.918 E2.64409
G1 X126.641 Y123.151 E2.65357
G1 X126.524 Y123.313 E2.66021
G1 X126.358 Y123.537 E2.66949
G1 X126.107 Y123.866 E2.68325
G1 X125.43 Y124.734 E2.71986
G1 X125.002 Y125.268 E2.74263
G1 X124.73 Y125.596 E2.7568
G1 X124.521 Y125.838 E2.76743
G1 X124.171 Y126.23 E2.78491
G1 X123.501 Y126.963 E2.81794
G1 X123.015 Y127.483 E2.84161
G1 X122.757 Y127.75 E2.85396
G1 X122.484 Y128.02 E2.86673
G1 X122.094 Y128.395 E2.88473
G1 X121.409 Y129.039 E2.916
G1 X120.827 Y129.573 E2.94227
G1 X120.464 Y129.892 E2.95834
G1 X120.274 Y130.052 E2.96661
G1 X119.938 Y130.327 E2.98105
G1 X119.242 Y130.89 E3.01082
G1 X118.53 Y131.449 E3.04093
G1 X118.296 Y131.628 E3.05073
G1 X117.931 Y131.893 E3.06573
G1 X117.514 Y132.183 E3.08262
G1 X116.696 Y132.743 E3.1156
G1 X116.104 Y133.138 E3.13927
G1 X115.303 Y133.625 E3.17044
G1 X114.462 Y134.042 E3.20167
G1 X113.59 Y134.385 E3.23283
G1 X112.691 Y134.653 E3.26403
G1 X111.773 Y134.844 E3.29522
G1 X110.842 Y134.956 E3.32641
G1 X109.904 Y134.988 E3.35762
G1 X108.968 Y134.94 E3.3888
G1 X108.038 Y134.812 E3.42002
G1 X107.124 Y134.606 E3.45118
G1 X106.23 Y134.322 E3.48238
G1 X105.363 Y133.963 E3.51359
G1 X104.53 Y133.532 E3.54479
G1 X104.014 Y133.217 E3.56489
G1 X103.758 Y133.051 E3.57504
G1 X103.529 Y132.899 E3.58418
G1 X102.496 Y132.19 E3.62586
G1 X101.89 Y131.761 E3.65055
G1 X101.654 Y131.589 E3.66026
G1 X101.487 Y131.464 E3.6672
G1 X101.257 Y131.287 E3.67686
G1 X100.919 Y131.019 E3.6912
G1 X100.102 Y130.359 E3.72613
G1 X99.55 Y129.902 E3.74997
G1 X99.253 Y129.647 E3.76299
G1 X98.978 Y129.4 E3.77528
G1 X98.674 Y129.119 E3.78905
G1 X97.91 Y128.398 E3.82399
G1 X97.356 Y127.862 E3.84963
G1 X97.099 Y127.605 E3.86172
G1 X96.83 Y127.323 E3.87468
G1 X96.54 Y127.01 E3.88887
G1 X95.827 Y126.225 E3.92414
G1 X95.366 Y125.704 E3.94728
G1 X95.161 Y125.466 E3.95773
G1 X94.834 Y125.07 E3.97481
G1 X94.567 Y124.732 E3.98914
G1 X93.931 Y123.914 E4.0236
G1 X93.486 Y123.325 E4.04815
G1 X93.284 Y123.049 E4.05953
G1 X93.04 Y122.7 E4.07369
G1 X92.783 Y122.317 E4.08903
G1 X92.215 Y121.456 E4.12334
G1 X91.829 Y120.855 E4.1471
G1 X91.642 Y120.554 E4.15888
G1 X91.435 Y120.205 E4.17238
G1 X91.262 Y119.901 E4.18401
G1 X90.678 Y118.85 E4.224
G1 X90.383 Y118.302 E4.2447
G1 X90.23 Y118.007 E4.25576
G1 X90.019 Y117.579 E4.27163
G1 X89.828 Y117.175 E4.28649
G1 X89.388 Y116.214 E4.32164
G1 X89.098 Y115.558 E4.3455
G1 X88.937 Y115.178 E4.35923
G1 X88.791 Y114.813 E4.3723
G1 X88.663 Y114.471 E4.38445
G1 X88.276 Y113.419 E4.42173
G1 X88.052 Y112.787 E4.44403
G1 X87.935 Y112.438 E4.45627
G1 X87.815 Y112.053 E4.46969
G1 X87.687 Y111.621 E4.48467
G1 X87.439 Y110.75 E4.51479
G1 X87.214 Y109.916 E4.54352
G1 X87.128 Y109.578 E4.55512
G1 X87.037 Y109.181 E4.56867
G1 X86.943 Y108.742 E4.5836
G1 X86.723 Y107.654 E4.62052
G1 X86.6 Y106.998 E4.64272
G1 X86.467 Y106.07 E4.6739
G1 X86.413 Y105.136 E4.70502
G1 X86.4 Y104.17 E4.73715
G1 X86.401 Y96.509 E4.99196
G1 X86.411 Y95.844 E5.01408
G1 X86.465 Y94.907 E5.04529
G1 X86.599 Y93.979 E5.07648
G1 X86.811 Y93.065 E5.10769
G1 X87.1 Y92.173 E5.13887
G1 X87.465 Y91.309 E5.17007
G1 X87.901 Y90.479 E5.20125
G1 X88.407 Y89.689 E5.23245
G1 X88.978 Y88.945 E5.26365
G1 X89.61 Y88.252 E5.29484
G0 F6000 X90.002 Y88.427
G1 F1200 X90.688 Y87.813 E5.32546
G1 X91.424 Y87.261 E5.35606
G1 X92.206 Y86.774 E5.3867
G1 X93.027 Y86.358 E5.41732
G1 X93.881 Y86.014 E5.44794
G1 X94.761 Y85.745 E5.47854
G1 X95.662 Y85.554 E5.50918
G1 X96.576 Y85.442 E5.5398
G1 X97.112 Y85.413 E5.55766
G1 X97.432 Y85.404 E5.5683
G1 X97.73 Y85.4 E5.57822
G1 X121.893 Y85.4 E6.38188
G1 X122.743 Y85.411 E6.41016
G1 X123.662 Y85.464 E6.44077
G1 X124.573 Y85.597 E6.47139
G1 X125.469 Y85.808 E6.50201
G1 X126.343 Y86.096 E6.53262
G1 X127.19 Y86.459 E6.56327
G1 X128.001 Y86.894 E6.59388
G1 X128.771 Y87.398 E6.62448
G1 X129.495 Y87.967 E6.65511
G1 X130.167 Y88.597 E6.68575
G1 X130.782 Y89.282 E6.71637
G1 X131.335 Y90.018 E6.74699
G1 X131.822 Y90.799 E6.7776
G1 X132.239 Y91.62 E6.80822
G1 X132.584 Y92.474 E6.83886
G1 X132.853 Y93.354 E6.86947
G1 X133.045 Y94.255 E6.90011
G1 X133.158 Y95.168 E6.9307
G1 X133.187 Y95.712 E6.94882
G1 X133.196 Y96.032 E6.95947
G1 X133.2 Y96.33 E6.96938
G1 X133.199 Y104.406 E7.23799
G1 X133.189 Y105.101 E7.26111
G1 X133.136 Y106.02 E7.29173
G1 X133.013 Y106.88 E7.32062
G1 X132.844 Y107.783 E7.35118
G1 X132.696 Y108.511 E7.37589
G1 X132.53 Y109.279 E7.40202
G1 X132.443 Y109.652 E7.41476
G1 X132.349 Y110.016 E7.42726
G1 X132.223 Y110.474 E7.44306
G1 X131.94 Y111.465 E7.47734
G1 X131.744 Y112.121 E7.50011
G1 X131.64 Y112.45 E7.51159
G1 X131.493 Y112.883 E7.5268
G1 X131.378 Y113.205 E7.53817
G1 X130.976 Y114.293 E7.57675
G1 X130.727 Y114.938 E7.59974
G1 X130.543 Y115.385 E7.61582
G1 X130.446 Y115.609 E7.62394
G1 X130.256 Y116.032 E7.63936
G1 X129.812 Y116.997 E7.67469
G1 X129.527 Y117.595 E7.69673
G1 X129.393 Y117.866 E7.70678
G1 X129.171 Y118.294 E7.72282
G1 X128.987 Y118.631 E7.73559
G1 X128.447 Y119.598 E7.77243
G1 X128.09 Y120.218 E7.79622
G1 X127.85 Y120.619 E7.81176
G1 X127.681 Y120.888 E7.82233
G1 X127.517 Y121.139 E7.8323
G1 X126.881 Y122.098 E7.87058
G1 X126.475 Y122.692 E7.89451
G1 X126.317 Y122.917 E7.90365
G1 X126.04 Y123.295 E7.91924
G1 X125.792 Y123.621 E7.93286
G1 X125.214 Y124.364 E7.96417
G1 X124.69 Y125.018 E7.99204
G1 X124.424 Y125.339 E8.00591
G1 X124.223 Y125.572 E8.01614
G1 X123.875 Y125.961 E8.0335
G1 X123.209 Y126.69 E8.06635
G1 X122.723 Y127.21 E8.09002
G1 X122.474 Y127.467 E8.10192
G1 X122.207 Y127.732 E8.11443
G1 X121.819 Y128.104 E8.13231
G1 X121.138 Y128.744 E8.16339
G1 X120.556 Y129.278 E8.18966
G1 X120.296 Y129.51 E8.20125
G1 X120.02 Y129.743 E8.21327
G1 X119.686 Y130.016 E8.22762
G1 X118.861 Y130.683 E8.2629
G1 X118.284 Y131.135 E8.28728
G1 X117.946 Y131.389 E8.30134
G1 X117.702 Y131.565 E8.31135
G1 X117.288 Y131.853 E8.32812
G1 X116.474 Y132.41 E8.36093
G1 X115.882 Y132.805 E8.3846
G1 X115.095 Y133.283 E8.41522
G1 X114.269 Y133.69 E8.44585
G1 X113.411 Y134.024 E8.47647
G1 X112.528 Y134.282 E8.50707
G1 X111.625 Y134.463 E8.5377
G1 X110.71 Y134.564 E8.56832
G1 X109.789 Y134.586 E8.59896
G1 X108.871 Y134.528 E8.62955
G1 X107.96 Y134.39 E8.6602
G1 X107.065 Y134.174 E8.69082
G1 X106.193 Y133.881 E8.72142
G1 X105.348 Y133.513 E8.75207
G1 X104.232 Y132.882 E8.79471
G1 X103.976 Y132.716 E8.80486
G1 X103.755 Y132.569 E8.81369
G1 X102.727 Y131.864 E8.85515
G1 X102.121 Y131.435 E8.87984
G1 X101.727 Y131.144 E8.89614
G1 X101.505 Y130.974 E8.90544
G1 X101.17 Y130.708 E8.91966
G1 X100.357 Y130.051 E8.95443
G1 X99.805 Y129.594 E8.97826
G1 X99.519 Y129.348 E8.99081
G1 X99.25 Y129.106 E9.00285
G1 X98.948 Y128.827 E9.01652
G1 X98.188 Y128.11 E9.05127
G1 X97.634 Y127.574 E9.07691
G1 X97.387 Y127.326 E9.08855
G1 X97.123 Y127.051 E9.10123
G1 X96.835 Y126.741 E9.11531
G1 X96.226 Y126.072 E9.1454
G1 X95.666 Y125.439 E9.17351
G1 X95.468 Y125.209 E9.1836
G1 X95.147 Y124.821 E9.20035
G1 X94.882 Y124.486 E9.21456
G1 X94.25 Y123.673 E9.2488
G1 X93.805 Y123.084 E9.27336
G1 X93.611 Y122.818 E9.28431
G1 X93.372 Y122.476 E9.29819
G1 X93.116 Y122.097 E9.3134
G1 X92.551 Y121.24 E9.34754
G1 X92.165 Y120.639 E9.3713
G1 X91.985 Y120.349 E9.38265
G1 X91.783 Y120.006 E9.39589
G1 X91.612 Y119.706 E9.40737
G1 X91.03 Y118.66 E9.44719
G1 X90.735 Y118.112 E9.46788
G1 X90.588 Y117.828 E9.47852
G1 X90.38 Y117.408 E9.49411
G1 X90.192 Y117.008 E9.50881
G1 X89.754 Y116.052 E9.54378
G1 X89.464 Y115.396 E9.56764
G1 X89.306 Y115.023 E9.58111
G1 X89.166 Y114.672 E9.59368
G1 X89.038 Y114.333 E9.60573
G1 X88.653 Y113.285 E9.64287
G1 X88.429 Y112.653 E9.66517
G1 X88.316 Y112.317 E9.67696
G1 X88.198 Y111.94 E9.6901
G1 X88.072 Y111.512 E9.70494
G1 X87.784 Y110.495 E9.74009
G1 X87.6 Y109.812 E9.76362
G1 X87.517 Y109.486 E9.77481
G1 X87.428 Y109.096 E9.78811
G1 X87.335 Y108.662 E9.80288
G1 X87.117 Y107.58 E9.83959
G1 X86.994 Y106.924 E9.86179
G1 X86.863 Y106.013 E9.8924
G1 X86.813 Y105.13 E9.92181
G1 X86.8 Y104.17 E9.95375
G1 X86.801 Y96.515 E10.20835
G1 X86.811 Y95.85 E10.23047
G1 X86.865 Y94.931 E10.26109
G1 X86.998 Y94.02 E10.29171
G1 X87.21 Y93.124 E10.32234
G1 X87.499 Y92.249 E10.35299
G1 X87.863 Y91.404 E10.38359
G1 X88.298 Y90.593 E10.4142
G1 X88.803 Y89.822 E10.44485
G1 X89.372 Y89.099 E10.47545
G1 X90.002 Y88.427 E10.50609
G0 F6000 X90.393 Y88.606
G1 F1200 X91.075 Y88.014 E10.53613
G1 X91.807 Y87.485 E10.56617
G1 X92.583 Y87.023 E10.5962
G1 X93.397 Y86.632 E10.62624
G1 X94.242 Y86.313 E10.65628
G1 X95.112 Y86.071 E10.68631
G1 X96 Y85.907 E10.71635
G1 X97.123 Y85.813 E10.75383
G1 X97.443 Y85.804 E10.76448
G1 X97.73 Y85.8 E10.77402
G1 X121.893 Y85.8 E11.57769
G1 X122.737 Y85.811 E11.60576
G1 X123.639 Y85.864 E11.63582
G1 X124.532 Y85.996 E11.66584
G1 X125.41 Y86.207 E11.69587
G1 X126.266 Y86.495 E11.72591
G1 X127.093 Y86.857 E11.75594
G1 X127.885 Y87.292 E11.78599
G1 X128.636 Y87.794 E11.81604
G1 X129.339 Y88.361 E11.84608
G1 X129.989 Y88.988 E11.87611
G1 X130.581 Y89.67 E11.90615
G1 X131.111 Y90.401 E11.93618
G1 X131.573 Y91.177 E11.96622
G1 X131.966 Y91.99 E11.99625
G1 X132.284 Y92.835 E12.02628
G1 X132.527 Y93.705 E12.05633
G1 X132.692 Y94.593 E12.08637
G1 X132.787 Y95.723 E12.12408
G1 X132.796 Y96.043 E12.13473
G1 X132.8 Y96.33 E12.14428
G1 X132.799 Y104.4 E12.41269
G1 X132.789 Y105.095 E12.43581
G1 X132.736 Y105.996 E12.46583
G1 X132.619 Y106.807 E12.49308
G1 X132.452 Y107.703 E12.52339
G1 X132.278 Y108.551 E12.55218
G1 X132.139 Y109.195 E12.5741
G1 X132.055 Y109.554 E12.58636
G1 X131.963 Y109.911 E12.59862
G1 X131.839 Y110.365 E12.61428
G1 X131.557 Y111.35 E12.64835
G1 X131.361 Y112.006 E12.67112
G1 X131.261 Y112.323 E12.68218
G1 X131.116 Y112.749 E12.69715
G1 X131.003 Y113.067 E12.70837
G1 X130.603 Y114.148 E12.74671
G1 X130.354 Y114.793 E12.7697
G1 X130.239 Y115.078 E12.77993
G1 X130.081 Y115.445 E12.79322
G1 X129.893 Y115.865 E12.80852
G1 X129.451 Y116.825 E12.84367
G1 X129.166 Y117.423 E12.86571
G1 X129.037 Y117.683 E12.87536
G1 X128.819 Y118.103 E12.8911
G1 X128.638 Y118.436 E12.9037
G1 X128.1 Y119.399 E12.94039
G1 X127.743 Y120.019 E12.96419
G1 X127.508 Y120.411 E12.97939
G1 X127.345 Y120.67 E12.98957
G1 X127.184 Y120.918 E12.9994
G1 X126.551 Y121.873 E13.03751
G1 X126.145 Y122.467 E13.06144
G1 X125.876 Y122.845 E13.07687
G1 X125.722 Y123.053 E13.08548
G1 X125.476 Y123.375 E13.09896
G1 X124.806 Y124.234 E13.13519
G1 X124.378 Y124.768 E13.15795
G1 X124.118 Y125.081 E13.17149
G1 X123.924 Y125.305 E13.18134
G1 X123.579 Y125.691 E13.19856
G1 X122.917 Y126.417 E13.23124
G1 X122.431 Y126.937 E13.25491
G1 X122.191 Y127.184 E13.26637
G1 X121.93 Y127.443 E13.2786
G1 X121.545 Y127.813 E13.29636
G1 X120.868 Y128.45 E13.32727
G1 X120.286 Y128.984 E13.35354
G1 X119.943 Y129.285 E13.36872
G1 X119.766 Y129.434 E13.37642
G1 X119.435 Y129.705 E13.39065
G1 X118.614 Y130.368 E13.42574
G1 X118.037 Y130.82 E13.45012
G1 X117.708 Y131.068 E13.46383
G1 X117.473 Y131.237 E13.47345
G1 X117.062 Y131.524 E13.49013
G1 X116.252 Y132.078 E13.52277
G1 X115.66 Y132.473 E13.54644
G1 X114.888 Y132.94 E13.57645
G1 X114.077 Y133.338 E13.60649
G1 X113.234 Y133.662 E13.63653
G1 X112.365 Y133.91 E13.66659
G1 X111.478 Y134.08 E13.69663
G1 X110.58 Y134.171 E13.72665
G1 X109.677 Y134.183 E13.75668
G1 X108.776 Y134.114 E13.78674
G1 X107.885 Y133.967 E13.81677
G1 X107.011 Y133.741 E13.8468
G1 X106.16 Y133.438 E13.87684
G1 X105.339 Y133.061 E13.90689
G1 X104.45 Y132.546 E13.94106
G1 X103.981 Y132.239 E13.95971
G1 X103.09 Y131.629 E13.99562
G1 X102.353 Y131.108 E14.02564
G1 X102.134 Y130.949 E14.03464
G1 X101.967 Y130.824 E14.04158
G1 X101.754 Y130.66 E14.05052
G1 X101.421 Y130.397 E14.06463
G1 X100.612 Y129.743 E14.09923
G1 X100.06 Y129.286 E14.12307
G1 X99.785 Y129.049 E14.13514
G1 X99.521 Y128.812 E14.14694
G1 X99.223 Y128.536 E14.16045
G1 X98.467 Y127.823 E14.19502
G1 X97.913 Y127.287 E14.22066
G1 X97.674 Y127.048 E14.2319
G1 X97.416 Y126.779 E14.24429
G1 X97.131 Y126.471 E14.25825
G1 X96.426 Y125.695 E14.29312
G1 X95.965 Y125.174 E14.31626
G1 X95.775 Y124.953 E14.32595
G1 X95.461 Y124.572 E14.34238
G1 X95.198 Y124.24 E14.35646
G1 X94.57 Y123.432 E14.3905
G1 X94.125 Y122.843 E14.41505
G1 X93.937 Y122.587 E14.42562
G1 X93.703 Y122.252 E14.43921
G1 X93.45 Y121.876 E14.45428
G1 X92.888 Y121.024 E14.48823
G1 X92.502 Y120.423 E14.51199
G1 X92.328 Y120.144 E14.52292
G1 X92.13 Y119.808 E14.53589
G1 X91.961 Y119.512 E14.54723
G1 X91.453 Y118.6 E14.58195
G1 X91.088 Y117.923 E14.60753
G1 X90.946 Y117.65 E14.61777
G1 X90.742 Y117.236 E14.63312
G1 X90.555 Y116.841 E14.64765
G1 X90.12 Y115.89 E14.68244
G1 X89.83 Y115.234 E14.70629
G1 X89.675 Y114.869 E14.71948
G1 X89.54 Y114.53 E14.73162
G1 X89.413 Y114.195 E14.74353
G1 X89.03 Y113.151 E14.78052
G1 X88.806 Y112.519 E14.80282
G1 X88.697 Y112.196 E14.81416
G1 X88.582 Y111.826 E14.82705
G1 X88.457 Y111.402 E14.84175
G1 X88.17 Y110.391 E14.8767
G1 X87.986 Y109.708 E14.90023
G1 X87.907 Y109.394 E14.911
G1 X87.819 Y109.012 E14.92404
G1 X87.727 Y108.582 E14.93866
G1 X87.51 Y107.507 E14.97514
G1 X87.387 Y106.851 E14.99734
G1 X87.26 Y105.957 E15.02737
G1 X87.213 Y105.124 E15.05512
G1 X87.2 Y104.17 E15.08685
G1 X87.201 Y96.521 E15.34126
G1 X87.211 Y95.856 E15.36338
G1 X87.265 Y94.954 E15.39343
G1 X87.398 Y94.061 E15.42346
G1 X87.609 Y93.183 E15.4535
G1 X87.898 Y92.327 E15.48355
G1 X88.261 Y91.5 E15.51359
G1 X88.695 Y90.709 E15.54359
G1 X89.198 Y89.958 E15.57366
