;FLAVOR:Marlin
;TIME:2463
;Filament used: 1.40157m
;Layer height: 0.16
;MINX:76.431
;MINY:87.221
;MINZ:0.2
;MAXX:138.431
;MAXY:138.021
;MAXZ:8.96
;Generated with Cura_SteamEngine 4.8.0
M140 S60
M105
M190 S60
M104 S205
M105
M109 S205
M82 ;absolute extrusion mode
;Generated with Cura_SteamEngine master
M140 S60
M105
M190 S60
M104 S205
M105
M109 S205
M82 ;absolute extrusion mode
; Ender 3 Custom Start G-code
G28 ; Home all axes
G92 E0 ; Reset Extruder
G1 Z2.0 F3000 ; Move Z Axis up little to prevent scratching of Heat Bed
G1 X0.1 Y20 Z0.3 F5000.0 ; Move to start position
G1 X0.1 Y200.0 Z0.3 F1500.0 E15 ; Draw the first line
G1 X0.4 Y200.0 Z0.3 F5000.0 ; Move to side a little
G1 X0.4 Y20 Z0.3 F1500.0 E30 ; Draw the second line
G92 E0 ; Reset Extruder
G1 Z2.0 F3000 ; Move Z Axis up little to prevent scratching of Heat Bed
; End of custom start GCode
G92 E0
G92 E0
G1 F2700 E-5
;LAYER_COUNT:53
;LAYER:0
M107
G0 F6000 X80.326 Y89.841 Z0.2
;TYPE:SKIRT
G1 F2700 E0
G1 F1200 X81.066 Y89.265 E0.03119
G1 X81.853 Y88.755 E0.06238
G1 X82.681 Y88.313 E0.0936
G1 X83.543 Y87.944 E0.12479
G1 X84.433 Y87.649 E0.15597
G1 X85.345 Y87.431 E0.18716
G1 X86.273 Y87.292 E0.21837
G1 X87.132 Y87.234 E0.247
G1 X87.452 Y87.225 E0.25765
G1 X87.761 Y87.221 E0.26793
G1 X88.857 Y87.221 E0.30438
G1 X89.711 Y87.232 E0.33279
G1 X90.331 Y87.259 E0.35343
G1 X91.152 Y87.317 E0.3808
G1 X93.752 Y87.464 E0.46742
G1 X96.247 Y87.536 E0.55044
G1 X98.771 Y87.536 E0.63439
G1 X101.295 Y87.465 E0.71837
G1 X103.84 Y87.322 E0.80315
G1 X104.119 Y87.301 E0.81245
G1 X104.84 Y87.254 E0.83649
G1 X105.218 Y87.236 E0.84907
G1 X105.348 Y87.232 E0.8534
G1 X105.846 Y87.228 E0.86996
G1 X106.121 Y87.232 E0.87911
G1 X107.057 Y87.286 E0.91029
G1 X107.986 Y87.419 E0.94151
G1 X108.899 Y87.631 E0.97268
G1 X109.792 Y87.92 E1.0039
G1 X110.656 Y88.283 E1.03507
G1 X111.226 Y88.573 E1.05634
G1 X111.703 Y88.833 E1.07441
G1 X111.931 Y88.961 E1.08311
G1 X113.956 Y90.128 E1.16084
G1 X116.185 Y91.33 E1.24507
G1 X118.414 Y92.451 E1.32805
G1 X120.687 Y93.515 E1.41153
G1 X123.016 Y94.525 E1.49596
G1 X125.352 Y95.462 E1.57967
G1 X127.69 Y96.323 E1.66254
G1 X129.622 Y96.959 E1.73019
G1 X130.961 Y97.414 E1.77723
G1 X131.835 Y97.753 E1.80841
G1 X132.678 Y98.166 E1.83963
G1 X133.482 Y98.649 E1.87083
G1 X134.242 Y99.198 E1.90201
G1 X134.952 Y99.81 E1.93319
G1 X135.608 Y100.481 E1.9644
G1 X136.204 Y101.205 E1.99559
G1 X136.736 Y101.977 E2.02677
G1 X137.201 Y102.792 E2.05798
G1 X137.594 Y103.643 E2.08916
G1 X137.914 Y104.525 E2.12036
G1 X138.157 Y105.431 E2.15156
G1 X138.323 Y106.354 E2.18275
G1 X138.418 Y107.522 E2.22173
G1 X138.427 Y107.844 E2.23244
G1 X138.431 Y108.151 E2.24265
G1 X138.43 Y116.836 E2.53152
G1 X138.42 Y117.564 E2.55573
G1 X138.367 Y118.5 E2.58692
G1 X138.235 Y119.429 E2.61812
G1 X138.024 Y120.343 E2.64932
G1 X137.736 Y121.235 E2.6805
G1 X137.372 Y122.1 E2.71171
G1 X136.937 Y122.931 E2.74291
G1 X136.432 Y123.721 E2.7741
G1 X135.862 Y124.466 E2.8053
G1 X135.231 Y125.159 E2.83647
G1 X134.543 Y125.796 E2.86765
G1 X133.803 Y126.373 E2.89886
G1 X133.016 Y126.884 E2.93007
G1 X132.189 Y127.326 E2.96126
G1 X131.327 Y127.696 E2.99246
G1 X130.808 Y127.879 E3.01076
G1 X129.976 Y128.148 E3.03985
G1 X127.559 Y128.966 E3.12472
G1 X125.202 Y129.839 E3.20831
G1 X122.847 Y130.788 E3.29276
G1 X120.557 Y131.786 E3.37585
G1 X118.274 Y132.859 E3.45975
G1 X116.036 Y133.991 E3.54316
G1 X113.818 Y135.19 E3.62702
G1 X111.835 Y136.342 E3.7033
G1 X111.411 Y136.582 E3.71951
G1 X110.575 Y137.009 E3.75073
G1 X109.707 Y137.363 E3.78191
G1 X108.812 Y137.642 E3.81309
G1 X107.896 Y137.843 E3.84428
G1 X106.499 Y137.997 E3.89102
G1 X106.369 Y138.003 E3.89535
G1 X105.686 Y138.014 E3.91807
G1 X105.374 Y138.009 E3.92845
G1 X104.779 Y137.983 E3.94826
G1 X103.867 Y137.919 E3.97867
G1 X101.332 Y137.775 E4.06312
G1 X98.782 Y137.704 E4.14796
G1 X96.257 Y137.704 E4.23195
G1 X93.762 Y137.776 E4.31496
G1 X91.241 Y137.918 E4.39895
G1 X90.643 Y137.965 E4.4189
G1 X90.214 Y137.992 E4.43319
G1 X89.863 Y138.008 E4.44488
G1 X89.543 Y138.017 E4.45553
G1 X89.234 Y138.021 E4.46581
G1 X87.98 Y138.02 E4.50751
G1 X87.282 Y138.01 E4.53073
G1 X86.346 Y137.956 E4.56192
G1 X85.418 Y137.824 E4.59309
G1 X84.504 Y137.612 E4.6243
G1 X83.612 Y137.323 E4.65549
G1 X82.747 Y136.96 E4.68669
G1 X81.917 Y136.524 E4.71787
G1 X81.126 Y136.019 E4.74908
G1 X80.382 Y135.448 E4.78028
G1 X79.689 Y134.816 E4.81147
G1 X79.052 Y134.128 E4.84266
G1 X78.477 Y133.387 E4.87385
G1 X77.966 Y132.601 E4.90503
G1 X77.524 Y131.773 E4.93625
G1 X77.155 Y130.911 E4.96744
G1 X76.86 Y130.021 E4.99862
G1 X76.642 Y129.109 E5.02981
G1 X76.502 Y128.181 E5.06102
G1 X76.444 Y127.309 E5.09009
G1 X76.435 Y126.977 E5.10114
G1 X76.431 Y126.679 E5.11105
G1 X76.432 Y98.759 E6.03967
G1 X76.442 Y98.07 E6.06259
G1 X76.496 Y97.134 E6.09377
G1 X76.629 Y96.206 E6.12496
G1 X76.841 Y95.292 E6.15616
G1 X77.129 Y94.4 E6.18734
G1 X77.493 Y93.535 E6.21855
G1 X77.929 Y92.705 E6.24974
G1 X78.434 Y91.915 E6.28092
G1 X79.005 Y91.171 E6.31211
G1 X79.637 Y90.478 E6.34331
G1 X80.326 Y89.841 E6.37452
G0 F6000 X80.714 Y90.038
G1 F1200 X81.451 Y89.485 E6.40516
G1 X82.232 Y88.998 E6.43578
G1 X83.053 Y88.581 E6.4664
G1 X83.907 Y88.237 E6.49703
G1 X84.787 Y87.968 E6.52763
G1 X85.688 Y87.776 E6.55827
G1 X86.601 Y87.663 E6.58887
G1 X87.143 Y87.634 E6.60692
G1 X87.463 Y87.625 E6.61757
G1 X87.761 Y87.621 E6.62748
G1 X88.857 Y87.621 E6.66394
G1 X89.705 Y87.632 E6.69214
G1 X90.302 Y87.658 E6.71202
G1 X91.095 Y87.714 E6.73846
G1 X93.719 Y87.863 E6.82587
G1 X96.271 Y87.936 E6.91079
G1 X98.782 Y87.936 E6.9943
G1 X101.33 Y87.865 E7.07908
G1 X103.852 Y87.723 E7.1631
G1 X104.145 Y87.7 E7.17287
G1 X104.866 Y87.653 E7.19691
G1 X105.23 Y87.636 E7.20903
G1 X105.36 Y87.632 E7.21335
G1 X105.84 Y87.628 E7.22932
G1 X106.115 Y87.632 E7.23846
G1 X107.034 Y87.685 E7.26908
G1 X107.945 Y87.818 E7.2997
G1 X108.841 Y88.03 E7.33033
G1 X109.716 Y88.318 E7.36096
G1 X110.562 Y88.681 E7.39158
G1 X111.034 Y88.924 E7.40924
G1 X111.511 Y89.184 E7.42731
G1 X111.731 Y89.307 E7.43569
G1 X113.772 Y90.483 E7.51404
G1 X115.994 Y91.681 E7.598
G1 X118.243 Y92.813 E7.68174
G1 X120.524 Y93.88 E7.7655
G1 X122.887 Y94.905 E7.85117
G1 X125.201 Y95.833 E7.93409
G1 X127.545 Y96.696 E8.01717
G1 X129.493 Y97.338 E8.08539
G1 X130.832 Y97.793 E8.13242
G1 X131.69 Y98.126 E8.16304
G1 X132.516 Y98.533 E8.19366
G1 X133.304 Y99.01 E8.2243
G1 X134.047 Y99.554 E8.25493
G1 X134.74 Y100.16 E8.28555
G1 X135.378 Y100.824 E8.31617
G1 X135.955 Y101.541 E8.34678
G1 X136.469 Y102.305 E8.37741
G1 X136.914 Y103.111 E8.40803
G1 X137.288 Y103.952 E8.43865
G1 X137.587 Y104.823 E8.46927
G1 X137.809 Y105.716 E8.49988
G1 X137.953 Y106.626 E8.53052
G1 X138.018 Y107.533 E8.56077
G1 X138.027 Y107.855 E8.57148
G1 X138.031 Y108.151 E8.58133
G1 X138.03 Y116.831 E8.87002
G1 X138.02 Y117.559 E8.89424
G1 X137.967 Y118.478 E8.92486
G1 X137.835 Y119.389 E8.95547
G1 X137.624 Y120.285 E8.98609
G1 X137.337 Y121.16 E9.01672
G1 X136.974 Y122.006 E9.04734
G1 X136.54 Y122.818 E9.07796
G1 X136.036 Y123.588 E9.10857
G1 X135.468 Y124.313 E9.1392
G1 X134.839 Y124.985 E9.16982
G1 X134.154 Y125.6 E9.20043
G1 X133.418 Y126.153 E9.23105
G1 X132.637 Y126.641 E9.26168
G1 X131.817 Y127.059 E9.2923
G1 X130.685 Y127.498 E9.33268
G1 X129.873 Y127.761 E9.36107
G1 X127.441 Y128.584 E9.44646
G1 X125.051 Y129.469 E9.53123
G1 X122.704 Y130.415 E9.61539
G1 X120.376 Y131.429 E9.69985
G1 X118.102 Y132.498 E9.78342
G1 X115.844 Y133.64 E9.86758
G1 X113.644 Y134.83 E9.95077
G1 X111.638 Y135.994 E10.02791
G1 X111.214 Y136.234 E10.04412
G1 X110.393 Y136.652 E10.07476
G1 X109.54 Y136.998 E10.10537
G1 X108.66 Y137.268 E10.13599
G1 X107.76 Y137.461 E10.1666
G1 X106.481 Y137.598 E10.20939
G1 X106.351 Y137.604 E10.21372
G1 X105.692 Y137.614 E10.23564
G1 X105.38 Y137.609 E10.24602
G1 X104.807 Y137.584 E10.26509
G1 X103.92 Y137.522 E10.29467
G1 X101.33 Y137.375 E10.38095
G1 X98.793 Y137.304 E10.46536
G1 X96.281 Y137.304 E10.54891
G1 X93.729 Y137.377 E10.63383
G1 X91.186 Y137.521 E10.71854
G1 X90.423 Y137.579 E10.74399
G1 X90.19 Y137.593 E10.75176
G1 X89.852 Y137.608 E10.76301
G1 X89.532 Y137.617 E10.77366
G1 X89.234 Y137.621 E10.78357
G1 X87.986 Y137.62 E10.82508
G1 X87.288 Y137.61 E10.8483
G1 X86.369 Y137.557 E10.87891
G1 X85.458 Y137.424 E10.90953
G1 X84.562 Y137.213 E10.94015
G1 X83.688 Y136.925 E10.97076
G1 X82.841 Y136.562 E11.00141
G1 X82.03 Y136.127 E11.03202
G1 X81.26 Y135.623 E11.06262
G1 X80.536 Y135.054 E11.09325
G1 X79.864 Y134.424 E11.12389
G1 X79.249 Y133.739 E11.15451
G1 X78.696 Y133.003 E11.18513
G1 X78.209 Y132.222 E11.21574
G1 X77.792 Y131.401 E11.24637
G1 X77.447 Y130.547 E11.277
G1 X77.178 Y129.667 E11.30761
G1 X76.986 Y128.766 E11.33825
G1 X76.873 Y127.853 E11.36884
G1 X76.844 Y127.298 E11.38733
G1 X76.835 Y126.966 E11.39837
G1 X76.831 Y126.679 E11.40792
G1 X76.832 Y98.765 E12.33634
G1 X76.842 Y98.076 E12.35926
G1 X76.895 Y97.157 E12.38988
G1 X77.028 Y96.246 E12.4205
G1 X77.24 Y95.35 E12.45113
G1 X77.528 Y94.476 E12.48173
G1 X77.891 Y93.63 E12.51235
G1 X78.326 Y92.818 E12.54299
G1 X78.83 Y92.048 E12.5736
G1 X79.399 Y91.324 E12.60423
G1 X80.029 Y90.652 E12.63486
G1 X80.714 Y90.038 E12.66546
G0 F6000 X81.102 Y90.239
G1 F1200 X81.834 Y89.709 E12.69552
G1 X82.61 Y89.247 E12.72555
G1 X83.423 Y88.855 E12.75557
G1 X84.268 Y88.536 E12.78562
G1 X85.138 Y88.293 E12.81566
G1 X86.026 Y88.129 E12.84569
G1 X87.154 Y88.034 E12.88334
G1 X87.474 Y88.025 E12.89399
G1 X87.761 Y88.021 E12.90354
G1 X88.857 Y88.021 E12.93999
G1 X89.7 Y88.032 E12.96803
G1 X90.274 Y88.057 E12.98714
G1 X91.047 Y88.112 E13.01292
G1 X93.72 Y88.263 E13.10196
G1 X96.259 Y88.336 E13.18644
G1 X98.793 Y88.336 E13.27073
G1 X101.327 Y88.265 E13.35504
G1 X103.907 Y88.12 E13.44099
G1 X104.171 Y88.1 E13.44979
G1 X104.892 Y88.053 E13.47382
G1 X105.242 Y88.036 E13.48548
G1 X105.372 Y88.032 E13.4898
G1 X105.834 Y88.028 E13.50517
G1 X106.109 Y88.032 E13.51432
G1 X107.011 Y88.085 E13.54437
G1 X107.904 Y88.218 E13.5744
G1 X108.782 Y88.429 E13.60443
G1 X109.638 Y88.717 E13.63447
G1 X110.843 Y89.275 E13.67864
G1 X111.32 Y89.535 E13.69671
G1 X111.532 Y89.654 E13.70479
G1 X113.574 Y90.831 E13.78319
G1 X115.803 Y92.033 E13.86742
G1 X118.059 Y93.168 E13.95141
G1 X120.387 Y94.257 E14.03689
G1 X122.715 Y95.267 E14.1213
G1 X125.051 Y96.204 E14.20501
G1 X127.426 Y97.078 E14.28918
G1 X129.365 Y97.716 E14.35707
G1 X130.704 Y98.171 E14.40411
G1 X131.545 Y98.499 E14.43413
G1 X132.354 Y98.901 E14.46418
G1 X133.125 Y99.372 E14.49423
G1 X133.85 Y99.91 E14.52426
G1 X134.526 Y100.509 E14.5543
G1 X135.145 Y101.166 E14.58432
G1 X135.704 Y101.875 E14.61435
G1 X136.198 Y102.631 E14.64439
G1 X136.624 Y103.428 E14.67445
G1 X136.977 Y104.259 E14.70447
G1 X137.255 Y105.118 E14.7345
G1 X137.456 Y105.999 E14.76456
G1 X137.579 Y106.894 E14.79461
G1 X137.618 Y107.544 E14.81626
G1 X137.627 Y107.866 E14.82698
G1 X137.631 Y108.151 E14.83646
G1 X137.63 Y116.825 E15.12496
G1 X137.62 Y117.553 E15.14917
G1 X137.568 Y118.455 E15.17922
G1 X137.436 Y119.348 E15.20925
G1 X137.225 Y120.226 E15.23928
G1 X136.938 Y121.083 E15.26934
G1 X136.576 Y121.91 E15.29937
G1 X136.143 Y122.702 E15.32939
G1 X135.64 Y123.453 E15.35945
G1 X135.074 Y124.156 E15.38947
G1 X134.448 Y124.807 E15.41951
G1 X133.766 Y125.399 E15.44955
G1 X133.035 Y125.929 E15.47958
G1 X132.259 Y126.392 E15.50963
G1 X131.446 Y126.785 E15.53967
G1 X130.562 Y127.117 E15.57107
G1 X129.771 Y127.373 E15.59873
G1 X127.31 Y128.206 E15.68514
G1 X124.899 Y129.099 E15.77066
G1 X122.556 Y130.043 E15.85467
G1 X120.212 Y131.065 E15.93972
G1 X117.917 Y132.143 E16.02405
G1 X115.667 Y133.281 E16.10792
G1 X113.444 Y134.483 E16.19197
G1 X111.441 Y135.646 E16.26901
G1 X111.017 Y135.886 E16.28521
G1 X110.212 Y136.295 E16.31524
G1 X109.374 Y136.632 E16.34528
G1 X108.509 Y136.894 E16.37534
G1 X107.625 Y137.077 E16.40537
G1 X106.462 Y137.198 E16.44426
G1 X106.332 Y137.204 E16.44859
G1 X105.699 Y137.214 E16.46965
G1 X105.387 Y137.209 E16.48002
G1 X104.835 Y137.185 E16.4984
G1 X103.969 Y137.124 E16.52728
G1 X101.33 Y136.975 E16.61519
G1 X98.804 Y136.904 E16.69924
G1 X96.269 Y136.904 E16.78355
G1 X93.73 Y136.977 E16.86803
G1 X91.134 Y137.124 E16.95452
G1 X90.399 Y137.18 E16.97903
G1 X90.166 Y137.194 E16.9868
G1 X89.841 Y137.208 E16.99762
G1 X89.521 Y137.217 E17.00826
G1 X89.234 Y137.221 E17.01781
G1 X87.992 Y137.22 E17.05912
G1 X87.294 Y137.21 E17.08234
G1 X86.392 Y137.157 E17.11239
G1 X85.499 Y137.025 E17.14241
G1 X84.621 Y136.814 E17.17245
G1 X83.765 Y136.526 E17.20249
G1 X82.938 Y136.164 E17.23251
G1 X82.146 Y135.729 E17.26257
G1 X81.395 Y135.227 E17.29261
G1 X80.692 Y134.66 E17.32265
G1 X80.042 Y134.033 E17.35269
G1 X79.45 Y133.351 E17.38272
G1 X78.92 Y132.62 E17.41276
G1 X78.458 Y131.844 E17.44279
G1 X78.065 Y131.031 E17.47283
G1 X77.747 Y130.186 E17.50286
G1 X77.504 Y129.316 E17.5329
G1 X77.339 Y128.428 E17.56294
G1 X77.244 Y127.287 E17.60102
G1 X77.235 Y126.955 E17.61207
G1 X77.231 Y126.679 E17.62125
G1 X77.232 Y98.771 E18.54947
G1 X77.242 Y98.082 E18.57239
G1 X77.295 Y97.18 E18.60244
G1 X77.428 Y96.287 E18.63247
G1 X77.639 Y95.409 E18.66251
G1 X77.927 Y94.553 E18.69255
G1 X78.289 Y93.726 E18.72257
G1 X78.724 Y92.934 E18.75263
G1 X79.226 Y92.184 E18.78264
G1 X79.793 Y91.481 E18.81268
G1 X80.42 Y90.831 E18.84272
G1 X81.102 Y90.239 E18.87276
G1 F2700 E13.87276
;MESH:09-Fireplace.STL
G0 F6000 X87.845 Y97.556
G0 X87.845 Y98.635
G0 X88.613 Y124.772
G0 X105.096 Y125.487
;TYPE:WALL-INNER
G1 F2700 E18.87276
G1 F1200 X104.964 Y125.487 E18.87715
G1 X104.964 Y124.954 E18.89488
G1 X98.767 Y124.954 E19.10099
G1 X98.76 Y124.634 E19.11163
G1 X96.166 Y124.634 E19.19791
G1 X96.157 Y124.952 E19.20849
G1 X94.66 Y124.954 E19.25828
G1 X94.653 Y124.634 E19.26893
G1 X92.081 Y124.634 E19.35447
G1 X92.065 Y124.954 E19.36513
G1 X88.564 Y124.954 E19.48157
G1 X88.564 Y126.021 E19.51706
G1 X88.431 Y126.021 E19.52149
G1 X88.431 Y124.954 E19.53332
G1 X88.431 Y100.287 E20.35374
G1 X88.431 Y99.221 E20.3892
G1 X88.564 Y99.221 E20.39362
G1 X88.564 Y100.287 E20.40544
G1 X92.042 Y100.287 E20.52112
G1 X92.049 Y100.607 E20.53176
G1 X94.621 Y100.607 E20.61731
G1 X94.637 Y100.287 E20.62797
G1 X96.157 Y100.287 E20.67852
G1 X96.166 Y100.607 E20.68917
G1 X98.728 Y100.607 E20.77438
G1 X98.744 Y100.287 E20.78504
G1 X104.962 Y100.287 E20.99185
G1 X104.963 Y99.755 E21.00954
G1 X105.098 Y99.754 E21.01403
G1 X105.098 Y100.287 E21.02007
G1 X105.098 Y102.461 E21.09237
G1 X113.771 Y108.821 E21.45009
G1 X126.431 Y108.821 E21.87116
G1 X126.431 Y116.421 E22.12394
G1 X113.771 Y116.421 E22.54501
G1 X105.098 Y122.78 E22.9027
G1 X105.097 Y124.954 E22.97501
G1 X105.096 Y125.487 E22.9809
G0 F6000 X105.496 Y126.104
G1 F1200 X105.28 Y125.887 E22.99108
G1 X104.564 Y125.887 E23.0149
G1 X104.564 Y125.354 E23.03262
G1 X98.376 Y125.354 E23.23844
G1 X98.369 Y125.034 E23.24908
G1 X96.555 Y125.034 E23.30942
G1 X96.546 Y125.352 E23.32
G1 X94.269 Y125.354 E23.39573
G1 X94.262 Y125.034 E23.40638
G1 X92.461 Y125.034 E23.46628
G1 X92.445 Y125.354 E23.47694
G1 X88.964 Y125.354 E23.59271
G1 X88.964 Y126.421 E23.6282
G1 X88.031 Y126.421 E23.65923
G1 X88.031 Y98.821 E24.57721
G1 X88.964 Y98.821 E24.60825
G1 X88.964 Y99.887 E24.6437
G1 X92.433 Y99.887 E24.75908
G1 X92.44 Y100.207 E24.76973
G1 X94.241 Y100.207 E24.82963
G1 X94.257 Y99.887 E24.84028
G1 X96.546 Y99.887 E24.91642
G1 X96.555 Y100.207 E24.92706
G1 X98.348 Y100.207 E24.9867
G1 X98.364 Y99.887 E24.99736
G1 X104.563 Y99.887 E25.20354
G1 X104.564 Y99.355 E25.22123
G1 X105.19 Y99.354 E25.24205
G1 X105.28 Y99.354 E25.24504
G1 X105.498 Y99.136 E25.2553
G1 X105.498 Y99.354 E25.25666
G1 X105.498 Y99.444 E25.25918
G1 X105.498 Y102.258 E25.35277
G1 X113.902 Y108.421 E25.6994
G1 X126.831 Y108.421 E26.12942
G1 X126.831 Y116.821 E26.4088
G1 X113.902 Y116.821 E26.83882
G1 X105.498 Y122.983 E27.18543
G1 X105.497 Y125.887 E27.28201
G1 X105.496 Y126.104 E27.28337
G0 F6000 X105.896 Y126.821
;TYPE:WALL-OUTER
G1 F1200 X105.647 Y126.821 E27.29165
G1 X105.114 Y126.287 E27.31675
G1 X104.164 Y126.287 E27.34834
G1 X104.164 Y125.754 E27.36607
G1 X97.985 Y125.754 E27.57159
G1 X97.978 Y125.434 E27.58223
G1 X96.944 Y125.434 E27.61662
G1 X96.935 Y125.752 E27.6272
G1 X93.878 Y125.754 E27.72888
