;FLAVOR:Marlin
;TIME:6666
;Filament used: 0m
;Layer height: 0.2

;Generated with Cura_SteamEngine master
M140 S60
M105
M190 S60
M104 S205
M105
M109 S205
M82 ;absolute extrusion mode
; Ender 3 Custom Start G-code
G28 ; Home all axes
G92 E0 ; Reset Extruder
G1 Z2.0 F3000 ; Move Z Axis up little to prevent scratching of Heat Bed
G1 X0.1 Y20 Z0.3 F5000.0 ; Move to start position
G1 X0.1 Y200.0 Z0.3 F1500.0 E15 ; Draw the first line
G1 X0.4 Y200.0 Z0.3 F5000.0 ; Move to side a little
G1 X0.4 Y20 Z0.3 F1500.0 E30 ; Draw the second line
G92 E0 ; Reset Extruder
G1 Z2.0 F3000 ; Move Z Axis up little to prevent scratching of Heat Bed
; End of custom start GCode
G92 E0
G1 F2400 E-5
;LAYER_COUNT:19
;LAYER:0
M107
M204 S5000
M205 X30 Y30
;MESH:/tmp/ap_slicer_wvs6g_25.stl
G0 F3600 X102.4 Y53.341 Z0.2
M204 S500
M205 X20 Y20
;TYPE:WALL-INNER
G1 F2400 E0
G1 F1800 X104.4 Y53.341 E0.06652
G1 X104.4 Y55.597 E0.14156
G1 X102.4 Y55.597 E0.20808
G1 X102.4 Y60.86 E0.38312
G1 X102.608 Y61.105 E0.39381
G1 X101.761 Y64.119 E0.49794
G1 X100.011 Y64.119 E0.55615
G1 X99.943 Y64.119 E0.55841
G1 X99.857 Y64.119 E0.56127
G1 X99.943 Y63.828 E0.56778
G1 X99.958 Y63.762 E0.56979
G1 X100.077 Y63.259 E0.58698
G1 X100.188 Y62.646 E0.6077
G1 X100.276 Y61.997 E0.62948
G1 X100.339 Y61.319 E0.65213
G1 X100.38 Y60.618 E0.67549
G1 X100.421 Y59.369 E0.71705
G1 X100.422 Y58.801 E0.73594
G1 X100.404 Y58.264 E0.75381
G1 X100.351 Y57.751 E0.77097
G1 X100.254 Y57.267 E0.78738
G1 X100.094 Y56.813 E0.8034
G1 X99.843 Y56.387 E0.81984
G1 X99.499 Y56.039 E0.83612
G1 X99.065 Y55.787 E0.85281
G1 X98.561 Y55.641 E0.87026
G1 X98 Y55.596 E0.88898
G1 X97.439 Y55.641 E0.9077
G1 X96.935 Y55.787 E0.92515
G1 X96.501 Y56.039 E0.94184
G1 X96.159 Y56.386 E0.95805
G1 X95.912 Y56.798 E0.97402
G1 X95.75 Y57.252 E0.99006
G1 X95.651 Y57.736 E1.00649
G1 X95.598 Y58.248 E1.02361
G1 X95.577 Y58.791 E1.04168
G1 X95.579 Y59.369 E1.06091
G1 X95.62 Y60.618 E1.10247
G1 X95.661 Y61.319 E1.12582
G1 X95.724 Y61.997 E1.14847
G1 X95.812 Y62.646 E1.17026
G1 X95.923 Y63.259 E1.19098
G1 X96.042 Y63.762 E1.20817
G1 X96.057 Y63.828 E1.21042
G1 X96.143 Y64.119 E1.22051
G1 X96.057 Y64.119
G1 X95.989 Y64.119 E1.22253
G1 X94.239 Y64.119 E1.28074
G1 X93.392 Y61.105 E1.38487
G1 X93.6 Y60.86 E1.39556
G1 X93.6 Y55.597 E1.5706
G1 X91.6 Y55.597 E1.63712
G1 X91.6 Y53.341 E1.71216
G1 X93.6 Y53.341 E1.77868
G1 X93.6 Y48.078 E1.95373
G1 X93.392 Y47.833 E1.96442
G1 X94.239 Y44.819 E2.06855
G1 X95.989 Y44.819 E2.12675
G1 X96.057 Y44.819 E2.12901
G1 X96.143 Y44.819 E2.13187
G1 X96.057 Y45.11 E2.13838
G1 X96.042 Y45.176 E2.14039
G1 X95.923 Y45.679 E2.15759
G1 X95.812 Y46.292 E2.17831
G1 X95.724 Y46.941 E2.20009
G1 X95.661 Y47.619 E2.22274
G1 X95.62 Y48.32 E2.24609
G1 X95.579 Y49.569 E2.28766
G1 X95.578 Y50.137 E2.30655
G1 X95.596 Y50.674 E2.32442
G1 X95.649 Y51.187 E2.34157
G1 X95.746 Y51.671 E2.35799
G1 X95.906 Y52.125 E2.374
G1 X96.157 Y52.551 E2.39045
G1 X96.501 Y52.899 E2.40672
G1 X96.935 Y53.151 E2.42341
G1 X97.439 Y53.297 E2.44086
G1 X98 Y53.342 E2.45958
G1 X98.561 Y53.297 E2.4783
G1 X99.065 Y53.151 E2.49575
G1 X99.499 Y52.899 E2.51245
G1 X99.841 Y52.552 E2.52865
G1 X100.088 Y52.14 E2.54463
G1 X100.25 Y51.686 E2.56066
G1 X100.349 Y51.202 E2.57709
G1 X100.402 Y50.69 E2.59421
G1 X100.423 Y50.147 E2.61229
G1 X100.421 Y49.569 E2.63151
G1 X100.38 Y48.32 E2.67307
G1 X100.339 Y47.619 E2.69643
G1 X100.276 Y46.941 E2.71908
G1 X100.188 Y46.292 E2.74086
G1 X100.077 Y45.679 E2.76158
G1 X99.958 Y45.176 E2.77877
G1 X99.943 Y45.11 E2.78102
G1 X99.857 Y44.819 E2.79112
G1 X99.943 Y44.819
G1 X100.011 Y44.819 E2.79314
G1 X101.761 Y44.819 E2.85134
G1 X102.608 Y47.833 E2.95547
G1 X102.4 Y48.078 E2.96616
G1 X102.4 Y53.341 E3.14121
M204 S5000
M205 X30 Y30
G0 F3600 X102.8 Y52.941
M204 S500
M205 X20 Y20
;TYPE:WALL-OUTER
G1 F1800 X104.8 Y52.941 E3.20773
G1 X104.8 Y55.997 E3.30937
G1 X102.8 Y55.997 E3.37589
G1 X102.8 Y60.714 E3.53278
G1 X102.964 Y60.908 E3.54123
G1 X102.996 Y60.979 E3.54382
G1 X103.008 Y61.045 E3.54605
G1 X103.007 Y61.176 E3.55041
G1 X102.064 Y64.519 E3.66594
G1 X99.478 Y64.519 E3.75195
G1 X99.408 Y64.519 E3.75428
G1 X99.296 Y64.519 E3.758
G1 X99.408 Y64.225 E3.76458
G1 X99.427 Y64.158 E3.76664
G1 X99.556 Y63.725 E3.78167
G1 X99.685 Y63.177 E3.8004
G1 X99.793 Y62.583 E3.82048
G1 X99.878 Y61.952 E3.84165
G1 X99.94 Y61.289 E3.8638
G1 X99.98 Y60.6 E3.88676
G1 X100.021 Y59.362 E3.92796
G1 X100.022 Y58.807 E3.94641
G1 X100.005 Y58.291 E3.96359
G1 X99.955 Y57.811 E3.97964
G1 X99.867 Y57.373 E3.9945
G1 X99.73 Y56.982 E4.00828
G1 X99.524 Y56.633 E4.02176
G1 X99.252 Y56.358 E4.03462
G1 X98.906 Y56.157 E4.04793
G1 X98.489 Y56.036 E4.06237
G1 X98 Y55.997 E4.07869
G1 X97.511 Y56.036 E4.095
G1 X97.094 Y56.157 E4.10944
G1 X96.748 Y56.358 E4.12275
G1 X96.477 Y56.633 E4.13559
G1 X96.275 Y56.97 E4.14866
G1 X96.136 Y57.36 E4.16243
G1 X96.047 Y57.797 E4.17727
G1 X95.997 Y58.276 E4.19328
G1 X95.977 Y58.798 E4.21066
G1 X95.979 Y59.362 E4.22942
G1 X96.02 Y60.6 E4.27062
G1 X96.06 Y61.289 E4.29357
G1 X96.122 Y61.952 E4.31572
G1 X96.207 Y62.583 E4.3369
G1 X96.315 Y63.177 E4.35698
G1 X96.444 Y63.725 E4.3757
G1 X96.573 Y64.158 E4.39073
G1 X96.592 Y64.225 E4.39304
G1 X96.704 Y64.519 E4.40351
G1 X96.592 Y64.519
G1 X96.522 Y64.519 E4.40559
G1 X93.936 Y64.519 E4.4916
G1 X92.993 Y61.176 E4.60713
G1 X92.992 Y61.045 E4.61149
G1 X93.004 Y60.979 E4.61372
G1 X93.036 Y60.908 E4.61631
G1 X93.2 Y60.714 E4.62476
G1 X93.2 Y55.997 E4.78165
G1 X91.2 Y55.997 E4.84817
G1 X91.2 Y52.941 E4.94981
G1 X93.2 Y52.941 E5.01633
G1 X93.2 Y48.224 E5.17322
G1 X93.036 Y48.03 E5.18167
G1 X93.004 Y47.959 E5.18426
G1 X92.992 Y47.893 E5.18649
G1 X92.993 Y47.762 E5.19084
G1 X93.936 Y44.419 E5.30637
G1 X96.522 Y44.419 E5.39238
G1 X96.592 Y44.419 E5.39471
G1 X96.704 Y44.419 E5.39844
G1 X96.592 Y44.713 E5.40501
G1 X96.573 Y44.78 E5.40708
G1 X96.444 Y45.213 E5.42211
G1 X96.315 Y45.761 E5.44083
G1 X96.207 Y46.355 E5.46091
G1 X96.122 Y46.986 E5.48209
G1 X96.06 Y47.649 E5.50424
G1 X96.02 Y48.338 E5.52719
G1 X95.979 Y49.576 E5.56839
G1 X95.978 Y50.131 E5.58685
G1 X95.995 Y50.647 E5.60402
G1 X96.045 Y51.127 E5.62007
G1 X96.133 Y51.565 E5.63493
G1 X96.27 Y51.956 E5.64871
G1 X96.476 Y52.305 E5.66219
G1 X96.748 Y52.58 E5.67506
G1 X97.094 Y52.781 E5.68837
G1 X97.511 Y52.902 E5.70281
G1 X98 Y52.941 E5.71912
G1 X98.489 Y52.902 E5.73544
G1 X98.906 Y52.781 E5.74988
G1 X99.252 Y52.58 E5.76319
G1 X99.523 Y52.305 E5.77603
G1 X99.725 Y51.968 E5.7891
G1 X99.864 Y51.578 E5.80287
G1 X99.953 Y51.141 E5.8177
G1 X100.003 Y50.662 E5.83372
G1 X100.023 Y50.14 E5.85109
G1 X100.021 Y49.576 E5.86985
G1 X99.98 Y48.338 E5.91105
G1 X99.94 Y47.649 E5.93401
G1 X99.878 Y46.986 E5.95615
G1 X99.793 Y46.355 E5.97733
G1 X99.685 Y45.761 E5.99741
G1 X99.556 Y45.213 E6.01614
G1 X99.427 Y44.78 E6.03116
G1 X99.408 Y44.713 E6.03348
G1 X99.296 Y44.419 E6.04394
G1 X99.408 Y44.419
G1 X99.478 Y44.419 E6.04603
G1 X102.064 Y44.419 E6.13204
G1 X103.007 Y47.762 E6.24757
G1 X103.008 Y47.893 E6.25192
G1 X102.996 Y47.959 E6.25415
G1 X102.964 Y48.03 E6.25674
G1 X102.8 Y48.224 E6.26519
G1 X102.8 Y52.941 E6.42208
M204 S5000
M205 X30 Y30
G0 F3600 X103 Y52.941
G0 X103 Y53.441
G0 X102.01 Y53.731
M204 S500
M205 X20 Y20
;TYPE:SKIN
G1 F1800 X104.01 Y53.731 E6.4886
G1 X104.01 Y55.207 E6.53769
G1 X102.01 Y55.207 E6.60421
G1 X102.01 Y61.003 E6.79699
G1 X102.177 Y61.198 E6.80553
G1 X101.465 Y63.729 E6.89298
G1 X100.367 Y63.729 E6.9295
G1 X100.459 Y63.339 E6.94283
G1 X100.574 Y62.707 E6.96419
G1 X100.664 Y62.041 E6.98654
G1 X100.727 Y61.348 E7.00969
G1 X100.77 Y60.636 E7.03341
G1 X100.811 Y59.375 E7.07538
G1 X100.812 Y58.795 E7.09467
G1 X100.794 Y58.237 E7.11324
G1 X100.737 Y57.692 E7.13146
G1 X100.631 Y57.163 E7.14941
G1 X100.449 Y56.648 E7.16757
G1 X100.155 Y56.147 E7.18689
G1 X99.739 Y55.727 E7.20655
G1 X99.219 Y55.426 E7.22654
G1 X98.631 Y55.255 E7.24691
G1 X98 Y55.204 E7.26796
G1 X97.369 Y55.255 E7.28902
G1 X96.781 Y55.426 E7.30938
G1 X96.26 Y55.729 E7.32943
G1 X95.849 Y56.146 E7.3489
G1 X95.557 Y56.63 E7.3677
G1 X95.374 Y57.147 E7.38595
G1 X95.265 Y57.677 E7.40394
G1 X95.208 Y58.221 E7.42213
G1 X95.187 Y58.784 E7.44087
G1 X95.189 Y59.376 E7.46056
G1 X95.23 Y60.636 E7.50249
G1 X95.273 Y61.348 E7.52622
G1 X95.336 Y62.041 E7.54936
G1 X95.426 Y62.707 E7.57171
G1 X95.541 Y63.339 E7.59308
G1 X95.633 Y63.729 E7.60641
G1 X94.535 Y63.729 E7.64293
G1 X93.823 Y61.198 E7.73038
G1 X93.99 Y61.003 E7.73892
G1 X93.99 Y55.207 E7.93169
G1 X91.99 Y55.207 E7.99821
G1 X91.99 Y53.731 E8.0473
G1 X93.99 Y53.731 E8.11382
G1 X93.99 Y47.935 E8.3066
G1 X93.823 Y47.74 E8.31514
G1 X94.535 Y45.209 E8.40259
G1 X95.633 Y45.209 E8.43911
G1 X95.541 Y45.599 E8.45243
G1 X95.426 Y46.231 E8.4738
G1 X95.336 Y46.897 E8.49615
G1 X95.273 Y47.59 E8.5193
G1 X95.23 Y48.302 E8.54302
G1 X95.189 Y49.563 E8.58498
G1 X95.188 Y50.143 E8.60428
G1 X95.206 Y50.701 E8.62284
G1 X95.263 Y51.246 E8.64107
G1 X95.369 Y51.775 E8.65901
G1 X95.551 Y52.29 E8.67718
G1 X95.845 Y52.791 E8.6965
G1 X96.261 Y53.211 E8.71616
G1 X96.781 Y53.512 E8.73615
G1 X97.369 Y53.683 E8.75651
G1 X98 Y53.734 E8.77757
G1 X98.631 Y53.683 E8.79863
G1 X99.219 Y53.512 E8.81899
G1 X99.74 Y53.209 E8.83904
G1 X100.151 Y52.792 E8.85851
G1 X100.443 Y52.308 E8.87731
G1 X100.626 Y51.791 E8.89555
G1 X100.735 Y51.261 E8.91355
G1 X100.792 Y50.717 E8.93174
G1 X100.813 Y50.154 E8.95048
G1 X100.811 Y49.562 E8.97017
G1 X100.77 Y48.302 E9.0121
G1 X100.727 Y47.59 E9.03583
G1 X100.664 Y46.897 E9.05897
G1 X100.574 Y46.231 E9.08132
G1 X100.459 Y45.599 E9.10269
G1 X100.367 Y45.209 E9.11602
G1 X101.465 Y45.209 E9.15254
G1 X102.177 Y47.74 E9.23998
G1 X102.01 Y47.935 E9.24852
G1 X102.01 Y53.731 E9.4413
M204 S5000
M205 X30 Y30
G0 F3600 X100.826 Y45.389
M204 S500
M205 X20 Y20
G1 F1800 X101.523 Y46.086 E9.47408
G1 X101.593 Y46.156
M204 S5000
M205 X30 Y30
G0 F3600 X101.744 Y46.873
M204 S500
M205 X20 Y20
G1 F1800 X100.678 Y45.807 E9.52423
M204 S5000
M205 X30 Y30
G0 F3600 X100.788 Y46.483
M204 S500
M205 X20 Y20
G1 F1800 X101.966 Y47.66 E9.57961
M204 S5000
M205 X30 Y30
G0 F3600 X101.829 Y48.088
M204 S500
M205 X20 Y20
G1 F1800 X100.863 Y47.123 E9.62503
M204 S5000
M205 X30 Y30
G0 F3600 X100.915 Y47.741
M204 S500
M205 X20 Y20
G1 F1800 X101.829 Y48.654 E9.66799
M204 S5000
M205 X30 Y30
G0 F3600 X101.829 Y49.22
M204 S500
M205 X20 Y20
G1 F1800 X100.95 Y48.342 E9.70932
M204 S5000
M205 X30 Y30
G0 F3600 X100.969 Y48.926
M204 S500
M205 X20 Y20
G1 F1800 X101.829 Y49.785 E9.74974
M204 S5000
M205 X30 Y30
G0 F3600 X101.829 Y50.351
M204 S500
M205 X20 Y20
G1 F1800 X100.988 Y49.51 E9.7893
M204 S5000
M205 X30 Y30
G0 F3600 X100.991 Y50.08
M204 S500
M205 X20 Y20
G1 F1800 X101.829 Y50.917 E9.8287
M204 S5000
M205 X30 Y30
G0 F3600 X101.829 Y51.483
M204 S500
M205 X20 Y20
G1 F1800 X100.974 Y50.628 E9.86891
M204 S5000
M205 X30 Y30
G0 F3600 X100.926 Y51.146
M204 S500
M205 X20 Y20
G1 F1800 X101.829 Y52.048 E9.91136
M204 S5000
M205 X30 Y30
G0 F3600 X101.829 Y52.614
M204 S500
M205 X20 Y20
G1 F1800 X100.842 Y51.627 E9.95779
M204 S5000
M205 X30 Y30
G0 F3600 X100.717 Y52.068
M204 S500
M205 X20 Y20
G1 F1800 X101.829 Y53.18 E10.01009
M204 S5000
M205 X30 Y30
G0 F3600 X101.829 Y53.745
M204 S500
M205 X20 Y20
G1 F1800 X100.554 Y52.47 E10.07007
M204 S5000
M205 X30 Y30
G0 F3600 X100.341 Y52.823
M204 S500
M205 X20 Y20
G1 F1800 X102.544 Y55.027 E10.17371
M204 S5000
M205 X30 Y30
G0 F3600 X103.11 Y55.027
M204 S500
M205 X20 Y20
G1 F1800 X101.994 Y53.911 E10.22621
M204 S5000
M205 X30 Y30
G0 F3600 X102.56 Y53.911
M204 S500
M205 X20 Y20
G1 F1800 X103.675 Y55.027 E10.27867
M204 S5000
M205 X30 Y30
G0 F3600 X103.829 Y54.614
M204 S500
M205 X20 Y20
G1 F1800 X103.125 Y53.911 E10.31177
M204 S5000
M205 X30 Y30
G0 F3600 X103.691 Y53.911
M204 S500
M205 X20 Y20
G1 F1800 X103.829 Y54.049 E10.31826
M204 S5000
M205 X30 Y30
G0 F3600 X101.978 Y55.027
M204 S500
M205 X20 Y20
G1 F1800 X100.075 Y53.123 E10.40779
M204 S5000
M205 X30 Y30
G0 F3600 X99.779 Y53.393
M204 S500
M205 X20 Y20
G1 F1800 X101.829 Y55.442 E10.50419
M204 S5000
M205 X30 Y30
G0 F3600 X101.829 Y56.008
M204 S500
M205 X20 Y20
G1 F1800 X99.422 Y53.601 E10.61741
M204 S5000
M205 X30 Y30
G0 F3600 X99.014 Y53.759
M204 S500
M205 X20 Y20
G1 F1800 X101.829 Y56.574 E10.74982
M204 S5000
M205 X30 Y30
G0 F3600 X101.829 Y57.139
M204 S500
M205 X20 Y20
G1 F1800 X98.559 Y53.87 E10.90361
M204 S5000
M205 X30 Y30
G0 F3600 X98.036 Y53.912
M204 S500
M205 X20 Y20
G1 F1800 X99.511 Y55.387 E10.97299
G1 X99.581 Y55.457
M204 S5000
M205 X30 Y30
G0 F3600 X98.632 Y55.074
M204 S500
M205 X20 Y20
G1 F1800 X97.426 Y53.868 E11.02971
G1 X97.356 Y53.798
M204 S5000
M205 X30 Y30
G0 F3600 X96.618 Y53.626
M204 S500
M205 X20 Y20
G1 F1800 X98.015 Y55.023 E11.09542
M204 S5000
M205 X30 Y30
G0 F3600 X97.49 Y55.063
M204 S500
M205 X20 Y20
G1 F1800 X94.169 Y51.743 E11.25161
M204 S5000
M205 X30 Y30
G0 F3600 X94.169 Y51.177
M204 S500
M205 X20 Y20
G1 F1800 X95.425 Y52.433 E11.31069
G1 X95.495 Y52.503
M204 S5000
M205 X30 Y30
G0 F3600 X94.169 Y52.308
M204 S500
M205 X20 Y20
G1 F1800 X97.027 Y55.167 E11.44514
M204 S5000
M205 X30 Y30
G0 F3600 X96.611 Y55.316
M204 S500
M205 X20 Y20
G1 F1800 X94.169 Y52.874 E11.56001
M204 S5000
M205 X30 Y30
G0 F3600 X94.169 Y53.44
M204 S500
M205 X20 Y20
G1 F1800 X96.253 Y55.524 E11.65803
M204 S5000
M205 X30 Y30
G0 F3600 X95.95 Y55.786
M204 S500
M205 X20 Y20
G1 F1800 X94.074 Y53.911 E11.74625
M204 S5000
M205 X30 Y30
G0 F3600 X93.509 Y53.911
M204 S500
M205 X20 Y20
G1 F1800 X95.677 Y56.079 E11.84823
M204 S5000
M205 X30 Y30
G0 F3600 X95.465 Y56.432
M204 S500
M205 X20 Y20
G1 F1800 X94.169 Y55.137 E11.90916
M204 S5000
M205 X30 Y30
G0 F3600 X94.058 Y55.026
M204 S500
M205 X20 Y20
G1 F1800 X92.943 Y53.911 E11.96161
M204 S5000
M205 X30 Y30
G0 F3600 X92.377 Y53.911
M204 S500
M205 X20 Y20
G1 F1800 X93.492 Y55.026 E12.01406
M204 S5000
M205 X30 Y30
G0 F3600 X92.927 Y55.026
M204 S500
M205 X20 Y20
G1 F1800 X92.169 Y54.268 E12.04971
M204 S5000
M205 X30 Y30
G0 F3600 X92.169 Y54.834
M204 S500
M205 X20 Y20
G1 F1800 X92.361 Y55.026 E12.05874
M204 S5000
M205 X30 Y30
G0 F3600 X94.169 Y55.703
M204 S500
M205 X20 Y20
G1 F1800 X95.295 Y56.828 E12.11168
M204 S5000
M205 X30 Y30
G0 F3600 X95.165 Y57.265
M204 S500
M205 X20 Y20
G1 F1800 X94.169 Y56.268 E12.15855
M204 S5000
M205 X30 Y30
G0 F3600 X94.169 Y56.834
M204 S500
M205 X20 Y20
G1 F1800 X95.076 Y57.741 E12.20122
M204 S5000
M205 X30 Y30
G0 F3600 X95.025 Y58.255
M204 S500
M205 X20 Y20
G1 F1800 X94.169 Y57.4 E12.24146
M204 S5000
M205 X30 Y30
G0 F3600 X94.169 Y57.965
M204 S500
M205 X20 Y20
G1 F1800 X95.006 Y58.802 E12.28083
M204 S5000
M205 X30 Y30
G0 F3600 X95.008 Y59.37
M204 S500
M205 X20 Y20
G1 F1800 X94.169 Y58.531 E12.32029
M204 S5000
M205 X30 Y30
G0 F3600 X94.169 Y59.097
M204 S500
M205 X20 Y20
G1 F1800 X95.027 Y59.954 E12.36062
M204 S5000
M205 X30 Y30
G0 F3600 X95.046 Y60.539
M204 S500
M205 X20 Y20
G1 F1800 X94.169 Y59.662 E12.40187
M204 S5000
M205 X30 Y30
G0 F3600 X94.169 Y60.228
M204 S500
M205 X20 Y20
G1 F1800 X95.079 Y61.138 E12.44468
M204 S5000
M205 X30 Y30
G0 F3600 X95.128 Y61.753
M204 S500
M205 X20 Y20
G1 F1800 X94.169 Y60.794 E12.48979
M204 S5000
M205 X30 Y30
G0 F3600 X94.035 Y61.225
M204 S500
M205 X20 Y20
G1 F1800 X95.201 Y62.391 E12.54463
M204 S5000
M205 X30 Y30
G0 F3600 X95.307 Y63.063
M204 S500
M205 X20 Y20
G1 F1800 X94.232 Y61.988 E12.5952
G1 X94.162 Y61.918
M204 S5000
M205 X30 Y30
G0 F3600 X94.453 Y62.775
M204 S500
M205 X20 Y20
G1 F1800 X95.227 Y63.549 E12.6316
G1 X95.297 Y63.619
M204 S5000
M205 X30 Y30
G0 F3600 X95.612 Y57.73
G0 X95.874 Y56.785
G0 X96.131 Y56.359
G0 X96.475 Y56.009
G0 X96.92 Y55.751
G0 X97.434 Y55.601
G0 X98 Y55.555
G0 X98.566 Y55.601
G0 X99.08 Y55.751
G0 X99.522 Y56.007
G0 X99.875 Y56.363
G0 X100.129 Y56.796
G0 X100.389 Y57.74
G0 X100.646 Y63.31
M204 S500
M205 X20 Y20
G1 F1800 X100.884 Y63.549 E12.64282
M204 S5000
M205 X30 Y30
G0 F3600 X101.354 Y63.453
M204 S500
M205 X20 Y20
G1 F1800 X100.733 Y62.832 E12.67203
M204 S5000
M205 X30 Y30
G0 F3600 X100.804 Y62.337
M204 S500
M205 X20 Y20
G1 F1800 X101.478 Y63.011 E12.70373
M204 S5000
M205 X30 Y30
G0 F3600 X101.602 Y62.57
M204 S500
M205 X20 Y20
G1 F1800 X100.863 Y61.83 E12.73852
M204 S5000
M205 X30 Y30
G0 F3600 X100.908 Y61.31
M204 S500
M205 X20 Y20
