;FLAVOR:Marlin
;TIME:3781
;Filament used: 2.07648m
;Layer height: 0.28
;MINX:92.679
;MINY:86.261
;MINZ:0.28
;MAXX:127.347
;MAXY:133.661
;MAXZ:50.68
;Generated with Cura_SteamEngine 4.8.0
M140 S60
M105
M190 S60
M104 S205
M105
M109 S205
M82 ;absolute extrusion mode
;Generated with Cura_SteamEngine master
M140 S60
M105
M190 S60
M104 S205
M105
M109 S205
M82 ;absolute extrusion mode
; Ender 3 Custom Start G-code
G28 ; Home all axes
G92 E0 ; Reset Extruder
G1 Z2.0 F3000 ; Move Z Axis up little to prevent scratching of Heat Bed
G1 X0.1 Y20 Z0.3 F5000.0 ; Move to start position
G1 X0.1 Y200.0 Z0.3 F1500.0 E15 ; Draw the first line
G1 X0.4 Y200.0 Z0.3 F5000.0 ; Move to side a little
G1 X0.4 Y20 Z0.3 F1500.0 E30 ; Draw the second line
G92 E0 ; Reset Extruder
G1 Z2.0 F3000 ; Move Z Axis up little to prevent scratching of Heat Bed
; End of custom start GCode
G92 E0
G92 E0
G1 F2700 E-5
;LAYER_COUNT:181
;LAYER:0
M107
G0 F6000 X95.429 Y90.051 Z0.28
;TYPE:SKIRT
G1 F2700 E0
G1 F1200 X96.074 Y89.37 E0.04368
G1 X96.775 Y88.747 E0.08735
G1 X97.526 Y88.186 E0.13099
G1 X98.323 Y87.691 E0.17468
G1 X99.159 Y87.265 E0.21837
G1 X100.028 Y86.912 E0.26205
G1 X100.923 Y86.635 E0.30567
G1 X101.84 Y86.434 E0.34939
G1 X102.77 Y86.313 E0.39306
G1 X103.394 Y86.276 E0.42216
G1 X103.723 Y86.266 E0.43749
G1 X104.057 Y86.261 E0.45304
G1 X115.64 Y86.261 E0.9924
G1 X116.496 Y86.272 E1.03226
G1 X117.432 Y86.326 E1.07591
G1 X118.36 Y86.458 E1.11956
G1 X119.274 Y86.67 E1.16325
G1 X120.166 Y86.959 E1.20691
G1 X121.031 Y87.322 E1.25059
G1 X121.861 Y87.758 E1.29425
G1 X122.652 Y88.263 E1.33795
G1 X123.396 Y88.834 E1.38162
G1 X124.089 Y89.466 E1.42529
G1 X124.726 Y90.154 E1.46895
G1 X125.301 Y90.895 E1.51262
G1 X125.812 Y91.681 E1.55628
G1 X126.254 Y92.509 E1.59998
G1 X126.623 Y93.371 E1.64364
G1 X126.918 Y94.261 E1.6873
G1 X127.136 Y95.173 E1.73097
G1 X127.276 Y96.101 E1.77467
G1 X127.334 Y96.961 E1.8148
G1 X127.343 Y97.28 E1.82966
G1 X127.347 Y97.59 E1.8441
G1 X127.346 Y122.061 E2.98357
G1 X127.337 Y122.788 E3.01743
G1 X127.286 Y123.725 E3.06112
G1 X127.154 Y124.653 E3.10477
G1 X126.945 Y125.567 E3.14843
G1 X126.658 Y126.46 E3.1921
G1 X126.296 Y127.326 E3.23581
G1 X125.862 Y128.157 E3.27946
G1 X125.358 Y128.948 E3.32314
G1 X124.789 Y129.693 E3.36679
G1 X124.158 Y130.388 E3.4105
G1 X123.471 Y131.026 E3.45415
G1 X122.732 Y131.603 E3.49781
G1 X121.946 Y132.115 E3.54149
G1 X121.12 Y132.558 E3.58514
G1 X120.258 Y132.93 E3.62885
G1 X119.369 Y133.226 E3.67248
G1 X118.457 Y133.446 E3.71617
G1 X117.53 Y133.587 E3.75983
G1 X116.646 Y133.648 E3.80109
G1 X116.325 Y133.657 E3.81604
G1 X116.017 Y133.661 E3.83038
G1 X104.358 Y133.66 E4.37328
G1 X103.66 Y133.651 E4.40578
G1 X102.724 Y133.599 E4.44943
G1 X101.795 Y133.467 E4.49313
G1 X100.881 Y133.257 E4.53679
G1 X99.988 Y132.97 E4.58047
G1 X99.123 Y132.607 E4.62415
G1 X98.292 Y132.173 E4.66781
G1 X97.501 Y131.669 E4.71148
G1 X96.756 Y131.099 E4.75516
G1 X96.062 Y130.468 E4.79883
G1 X95.425 Y129.781 E4.84246
G1 X94.848 Y129.041 E4.88615
G1 X94.336 Y128.255 E4.92983
G1 X93.893 Y127.428 E4.97352
G1 X93.522 Y126.567 E5.01717
G1 X93.226 Y125.677 E5.06085
G1 X93.007 Y124.765 E5.10452
G1 X92.866 Y123.838 E5.14818
G1 X92.807 Y122.968 E5.18879
G1 X92.794 Y122.516 E5.20984
G1 X92.789 Y122.26 E5.22177
G1 X92.787 Y121.895 E5.23876
G1 X92.766 Y120.404 E5.3082
G1 X92.756 Y119.396 E5.35513
G1 X92.758 Y119.104 E5.36873
G1 X92.757 Y118.672 E5.38885
G1 X92.768 Y117.531 E5.44198
G1 X92.805 Y115.676 E5.52837
G1 X92.822 Y113.375 E5.63552
G1 X92.849 Y111.725 E5.71236
G1 X92.83 Y109.658 E5.80861
G1 X92.791 Y107.923 E5.88942
G1 X92.793 Y107.587 E5.90507
G1 X92.787 Y107.306 E5.91816
G1 X92.783 Y106.981 E5.93329
G1 X92.73 Y105.205 E6.01603
G1 X92.726 Y105.011 E6.02506
G1 X92.695 Y102.51 E6.14153
G1 X92.68 Y101.465 E6.19019
G1 X92.679 Y101.272 E6.19918
G1 X92.683 Y100.123 E6.25268
G1 X92.685 Y97.884 E6.35694
G1 X92.689 Y97.587 E6.37077
G1 X92.695 Y97.363 E6.3812
G1 X92.712 Y96.915 E6.40208
G1 X92.787 Y95.98 E6.44576
G1 X92.942 Y95.055 E6.48943
G1 X93.175 Y94.147 E6.53308
G1 X93.468 Y93.305 E6.57459
G1 X93.492 Y93.244 E6.57764
G1 X93.872 Y92.386 E6.62134
G1 X94.324 Y91.565 E6.66498
G1 X94.844 Y90.784 E6.70867
G1 X95.429 Y90.051 E6.75234
G0 F6000 X95.775 Y90.263
G1 F1200 X96.414 Y89.599 E6.79525
G1 X97.107 Y88.993 E6.83812
G1 X97.85 Y88.45 E6.88097
G1 X98.638 Y87.973 E6.92386
G1 X99.464 Y87.567 E6.96672
G1 X100.322 Y87.233 E7.00959
G1 X101.206 Y86.975 E7.05247
G1 X102.109 Y86.795 E7.09534
G1 X103.406 Y86.676 E7.15599
G1 X103.735 Y86.666 E7.17132
G1 X104.057 Y86.661 E7.18631
G1 X115.64 Y86.661 E7.72567
G1 X116.49 Y86.672 E7.76525
G1 X117.409 Y86.725 E7.80811
G1 X118.32 Y86.858 E7.85098
G1 X119.216 Y87.069 E7.89384
G1 X120.09 Y87.357 E7.93669
G1 X120.937 Y87.72 E7.9796
G1 X121.748 Y88.155 E8.02246
G1 X122.518 Y88.659 E8.06531
G1 X123.242 Y89.228 E8.10819
G1 X123.914 Y89.858 E8.15108
G1 X124.529 Y90.543 E8.19394
G1 X125.082 Y91.279 E8.23681
G1 X125.569 Y92.06 E8.27967
G1 X125.986 Y92.881 E8.32255
G1 X126.331 Y93.735 E8.36543
G1 X126.6 Y94.615 E8.40828
G1 X126.792 Y95.516 E8.45118
G1 X126.905 Y96.429 E8.49402
G1 X126.934 Y96.972 E8.51934
G1 X126.943 Y97.291 E8.5342
G1 X126.947 Y97.59 E8.54812
G1 X126.946 Y122.056 E9.68736
G1 X126.937 Y122.783 E9.72121
G1 X126.886 Y123.702 E9.76407
G1 X126.755 Y124.614 E9.80698
G1 X126.545 Y125.51 E9.84983
G1 X126.259 Y126.385 E9.89269
G1 X125.898 Y127.232 E9.93557
G1 X125.464 Y128.044 E9.97844
G1 X124.962 Y128.816 E10.02132
G1 X124.394 Y129.541 E10.0642
G1 X123.766 Y130.214 E10.10706
G1 X123.082 Y130.83 E10.14993
G1 X122.347 Y131.384 E10.19278
G1 X121.567 Y131.873 E10.23565
G1 X120.747 Y132.292 E10.27853
G1 X119.894 Y132.638 E10.32139
G1 X119.014 Y132.909 E10.36427
G1 X118.114 Y133.102 E10.40713
G1 X117.2 Y133.217 E10.45002
G1 X116.635 Y133.248 E10.47637
G1 X116.314 Y133.257 E10.49133
G1 X116.017 Y133.261 E10.50516
G1 X104.363 Y133.26 E11.04781
G1 X103.665 Y133.251 E11.08032
G1 X102.746 Y133.199 E11.12318
G1 X101.835 Y133.068 E11.16604
G1 X100.939 Y132.858 E11.20889
G1 X100.064 Y132.571 E11.25177
G1 X99.217 Y132.209 E11.29466
G1 X98.405 Y131.775 E11.33753
G1 X97.634 Y131.273 E11.38037
G1 X96.909 Y130.705 E11.42326
G1 X96.236 Y130.076 E11.46615
G1 X95.621 Y129.392 E11.50898
G1 X95.067 Y128.657 E11.55184
G1 X94.579 Y127.876 E11.59472
G1 X94.16 Y127.056 E11.6376
G1 X93.814 Y126.203 E11.68046
G1 X93.544 Y125.323 E11.72332
G1 X93.351 Y124.422 E11.76623
G1 X93.237 Y123.509 E11.80907
G1 X93.206 Y122.957 E11.83482
G1 X93.193 Y122.505 E11.85587
G1 X93.189 Y122.258 E11.86738
G1 X93.187 Y121.893 E11.88437
G1 X93.166 Y120.4 E11.9539
G1 X93.156 Y119.399 E12.00051
G1 X93.159 Y119.105 E12.0142
G1 X93.157 Y118.675 E12.03423
G1 X93.168 Y117.539 E12.08713
G1 X93.205 Y115.687 E12.17338
G1 X93.222 Y113.381 E12.28076
G1 X93.249 Y111.728 E12.35774
G1 X93.23 Y109.654 E12.45432
G1 X93.191 Y107.913 E12.53541
G1 X93.192 Y107.598 E12.55008
G1 X93.183 Y106.965 E12.57955
G1 X93.13 Y105.193 E12.6621
G1 X93.126 Y105.006 E12.67081
G1 X93.095 Y102.505 E12.78728
G1 X93.08 Y101.459 E12.83599
G1 X93.079 Y101.273 E12.84465
G1 X93.083 Y100.124 E12.89815
G1 X93.085 Y97.885 E13.00241
G1 X93.089 Y97.594 E13.01596
G1 X93.095 Y97.378 E13.02602
G1 X93.112 Y96.93 E13.0469
G1 X93.186 Y96.012 E13.08978
G1 X93.341 Y95.105 E13.13263
G1 X93.573 Y94.214 E13.1755
G1 X93.84 Y93.451 E13.21314
G1 X93.864 Y93.39 E13.21619
G1 X94.238 Y92.549 E13.25905
G1 X94.684 Y91.743 E13.30195
G1 X95.197 Y90.979 E13.3448
G1 X95.775 Y90.263 E13.38764
G0 F6000 X96.121 Y90.476
G1 F1200 X96.752 Y89.829 E13.42973
G1 X97.438 Y89.242 E13.47177
G1 X98.173 Y88.717 E13.51383
G1 X98.951 Y88.259 E13.55587
G1 X99.767 Y87.872 E13.59792
G1 X100.614 Y87.558 E13.63998
G1 X101.485 Y87.321 E13.68201
G1 X102.374 Y87.161 E13.72407
G1 X103.418 Y87.076 E13.77285
G1 X103.747 Y87.066 E13.78817
G1 X104.057 Y87.061 E13.80261
G1 X115.64 Y87.061 E14.34196
G1 X116.484 Y87.072 E14.38127
G1 X117.386 Y87.125 E14.42334
G1 X118.279 Y87.257 E14.46537
G1 X119.157 Y87.468 E14.50742
G1 X120.013 Y87.756 E14.54948
G1 X120.84 Y88.118 E14.59151
G1 X121.632 Y88.553 E14.63359
G1 X122.383 Y89.055 E14.67565
G1 X123.086 Y89.622 E14.71771
G1 X123.736 Y90.249 E14.75976
G1 X124.328 Y90.931 E14.80181
G1 X124.858 Y91.662 E14.84385
G1 X125.32 Y92.438 E14.88591
G1 X125.713 Y93.251 E14.92796
G1 X126.031 Y94.096 E14.97
G1 X126.274 Y94.966 E15.01206
G1 X126.439 Y95.854 E15.05411
G1 X126.534 Y96.983 E15.10687
G1 X126.543 Y97.302 E15.12173
G1 X126.547 Y97.59 E15.13514
G1 X126.546 Y122.051 E16.27415
G1 X126.537 Y122.778 E16.308
G1 X126.486 Y123.68 E16.35007
G1 X126.355 Y124.574 E16.39214
G1 X126.146 Y125.452 E16.43417
G1 X125.86 Y126.309 E16.47624
G1 X125.499 Y127.137 E16.5183
G1 X125.067 Y127.929 E16.56031
G1 X124.566 Y128.681 E16.60238
G1 X124 Y129.385 E16.64445
G1 X123.375 Y130.036 E16.68647
G1 X122.694 Y130.63 E16.72855
G1 X121.963 Y131.161 E16.77062
G1 X121.189 Y131.625 E16.81264
G1 X120.376 Y132.019 E16.85471
G1 X119.532 Y132.339 E16.89674
G1 X118.662 Y132.584 E16.93882
G1 X117.775 Y132.75 E16.98084
G1 X116.624 Y132.848 E17.03463
G1 X116.303 Y132.857 E17.04958
G1 X116.017 Y132.861 E17.0629
G1 X104.368 Y132.86 E17.60533
G1 X103.67 Y132.851 E17.63783
G1 X102.769 Y132.8 E17.67986
G1 X101.875 Y132.668 E17.72193
G1 X100.997 Y132.459 E17.76396
G1 X100.14 Y132.172 E17.80604
G1 X99.313 Y131.811 E17.84806
G1 X98.52 Y131.378 E17.89013
G1 X97.769 Y130.877 E17.93217
G1 X97.065 Y130.311 E17.97423
G1 X96.414 Y129.685 E18.01629
G1 X95.821 Y129.004 E18.05833
G1 X95.291 Y128.273 E18.10038
G1 X94.827 Y127.498 E18.14244
G1 X94.433 Y126.685 E18.18451
G1 X94.113 Y125.841 E18.22654
G1 X93.869 Y124.971 E18.26861
G1 X93.703 Y124.083 E18.31068
G1 X93.606 Y122.945 E18.36386
G1 X93.593 Y122.493 E18.38491
G1 X93.589 Y122.256 E18.39595
G1 X93.587 Y121.891 E18.41295
G1 X93.566 Y120.395 E18.48261
G1 X93.556 Y119.403 E18.52881
G1 X93.559 Y119.107 E18.54259
G1 X93.557 Y118.679 E18.56252
G1 X93.568 Y117.547 E18.61523
G1 X93.605 Y115.698 E18.70135
G1 X93.622 Y113.388 E18.80892
G1 X93.649 Y111.731 E18.88608
G1 X93.63 Y109.65 E18.98299
G1 X93.591 Y107.904 E19.06431
G1 X93.592 Y107.591 E19.07888
G1 X93.583 Y106.948 E19.10883
G1 X93.526 Y105.001 E19.19953
G1 X93.495 Y102.5 E19.31599
G1 X93.479 Y101.274 E19.37308
G1 X93.483 Y100.125 E19.42659
G1 X93.485 Y97.885 E19.53089
G1 X93.489 Y97.601 E19.54412
G1 X93.494 Y97.393 E19.5538
G1 X93.511 Y96.945 E19.57468
G1 X93.585 Y96.045 E19.61673
G1 X93.739 Y95.155 E19.65879
G1 X93.971 Y94.282 E19.70085
G1 X94.212 Y93.598 E19.73462
G1 X94.236 Y93.537 E19.73767
G1 X94.604 Y92.712 E19.77973
G1 X95.043 Y91.922 E19.82182
G1 X95.55 Y91.175 E19.86386
G1 X96.121 Y90.476 E19.90588
G1 F2700 E14.90588
;MESH:OL5_Tudor_Wall_IN_Slash.stl
G0 F6000 X105.287 Y96.596
G0 X105.287 Y98.071
G0 X105.687 Y99.75
G0 X105.669 Y121.639
G0 X110.947 Y121.811
;TYPE:WALL-INNER
G1 F2700 E19.90588
G1 F1200 X110.947 Y98.111 E21.00945
G1 X105.497 Y98.111 E21.26323
G1 X105.497 Y121.811 E22.3668
G1 X110.947 Y121.811 E22.62058
G0 F6000 X110.547 Y121.411
;TYPE:WALL-OUTER
G1 F1200 X110.547 Y98.511 E23.6869
G1 X105.897 Y98.511 E23.90342
G1 X105.897 Y121.411 E24.96974
G1 X110.547 Y121.411 E25.18626
G0 F6000 X110.847 Y121.411
G0 X111.129 Y121.879
G0 X115.747 Y122.061
;TYPE:WALL-INNER
G1 F1200 X110.947 Y122.061 E25.40977
G1 X105.497 Y122.061 E25.56878
G1 X104.388 Y122.061 E25.62042
G1 X104.38 Y120.692 E25.68416
G1 X104.366 Y120.259 E25.70434
G1 X104.357 Y119.8 E25.72571
G1 X104.355 Y119.064 E25.75999
G1 X104.36 Y118.775 E25.77345
G1 X104.364 Y117.731 E25.82206
G1 X104.37 Y117.366 E25.83906
G1 X104.383 Y117.093 E25.85178
G1 X104.397 Y116.599 E25.8748
G1 X104.408 Y115.483 E25.92676
G1 X104.417 Y114.941 E25.952
G1 X104.416 Y113.936 E25.9988
G1 X104.421 Y113.581 E26.01533
G1 X104.434 Y113.294 E26.02871
G1 X104.447 Y112.83 E26.05033
G1 X104.471 Y111.737 E26.10123
G1 X104.472 Y111.465 E26.1139
G1 X104.452 Y110.663 E26.15125
G1 X104.45 Y110.369 E26.16494
G1 X104.425 Y109.367 E26.21162
G1 X104.42 Y109.02 E26.22778
G1 X104.422 Y108.344 E26.25925
G1 X104.417 Y107.974 E26.27648
G1 X104.393 Y107.476 E26.2997
G1 X104.376 Y106.7 E26.33584
G1 X104.373 Y105.855 E26.37519
G1 X104.395 Y105.436 E26.39473
G1 X104.385 Y105.067 E26.41191
G1 X104.371 Y104.893 E26.42004
G1 X104.311 Y104.296 E26.44798
G1 X104.301 Y103.977 E26.46284
G1 X104.302 Y103.711 E26.47523
G1 X104.316 Y103.237 E26.49731
G1 X104.318 Y102.906 E26.51272
G1 X104.309 Y102.575 E26.52814
G1 X104.293 Y102.248 E26.54339
G1 X104.278 Y101.81 E26.56379
G1 X104.276 Y101.375 E26.58405
G1 X104.283 Y100.6 E26.62014
G1 X104.285 Y97.861 E26.74768
G1 X105.497 Y97.861 E26.80411
G1 X110.947 Y97.861 E26.96312
G1 X115.747 Y97.861 E27.18663
G1 X115.747 Y122.061 E28.31348
G0 F6000 X116.147 Y122.461
;TYPE:WALL-OUTER
G1 F1200 X103.99 Y122.461 E28.87956
G1 X103.983 Y120.975 E28.94876
G1 X103.98 Y120.701 E28.96152
G1 X103.966 Y120.272 E28.9815
G1 X103.957 Y119.808 E29.00311
G1 X103.955 Y119.057 E29.03808
G1 X103.96 Y118.771 E29.0514
G1 X103.964 Y117.725 E29.10011
G1 X103.97 Y117.347 E29.11771
G1 X103.983 Y117.078 E29.13025
G1 X103.997 Y116.591 E29.15294
G1 X104.008 Y115.476 E29.20486
G1 X104.017 Y114.938 E29.22992
G1 X104.016 Y113.931 E29.27681
G1 X104.021 Y113.563 E29.29394
G1 X104.034 Y113.279 E29.30718
G1 X104.047 Y112.82 E29.32856
G1 X104.071 Y111.732 E29.37924
G1 X104.072 Y111.469 E29.39148
G1 X104.052 Y110.673 E29.42856
G1 X104.05 Y110.375 E29.44244
G1 X104.025 Y109.377 E29.48892
G1 X104.02 Y109.019 E29.50559
G1 X104.022 Y108.346 E29.53693
G1 X104.017 Y107.987 E29.55365
G1 X103.993 Y107.496 E29.57654
G1 X103.976 Y106.709 E29.61319
G1 X103.973 Y105.856 E29.65291
G1 X103.995 Y105.431 E29.67273
G1 X103.985 Y105.088 E29.68871
G1 X103.973 Y104.929 E29.69613
G1 X103.937 Y104.589 E29.71205
G1 X103.911 Y104.315 E29.72487
G1 X103.901 Y103.976 E29.74066
G1 X103.902 Y103.699 E29.75356
G1 X103.916 Y103.23 E29.77541
G1 X103.918 Y102.91 E29.79031
G1 X103.909 Y102.591 E29.80517
G1 X103.893 Y102.268 E29.82023
G1 X103.878 Y101.824 E29.84091
G1 X103.876 Y101.371 E29.86201
G1 X103.883 Y100.598 E29.898
G1 X103.884 Y98.017 E30.01819
G1 X103.887 Y97.637 E30.03588
G1 X103.891 Y97.461 E30.04408
G1 X116.147 Y97.461 E30.61477
G1 X116.147 Y122.461 E31.77887
G0 F6000 X115.877 Y122.191
G0 X115.637 Y121.671
G0 X115.357 Y121.671
;TYPE:SKIN
G1 F1200 X111.337 Y121.671 E31.96606
G1 X111.337 Y98.251 E33.05659
G1 X115.357 Y98.251 E33.24378
G1 X115.357 Y121.671 E34.33432
G0 F6000 X115.637 Y121.671
G0 X111.893 Y121.951
G0 X111.893 Y121.509
G1 F1200 X111.496 Y121.113 E34.36043
G0 F6000 X111.496 Y120.547
G1 F1200 X112.458 Y121.509 E34.42378
G0 F6000 X113.024 Y121.509
G1 F1200 X111.496 Y119.981 E34.5244
G0 F6000 X111.496 Y119.416
G1 F1200 X113.59 Y121.509 E34.66226
G0 F6000 X114.156 Y121.509
G1 F1200 X111.496 Y118.85 E34.83739
G0 F6000 X111.496 Y118.284
G1 F1200 X114.721 Y121.509 E35.04976
G0 F6000 X115.196 Y121.419
G1 F1200 X111.496 Y117.719 E35.29341
G0 F6000 X111.496 Y117.153
G1 F1200 X115.196 Y120.853 E35.53706
G0 F6000 X115.196 Y120.288
G1 F1200 X111.496 Y116.587 E35.78075
G0 F6000 X111.496 Y116.022
G1 F1200 X115.196 Y119.722 E36.0244
G0 F6000 X115.196 Y119.156
G1 F1200 X111.496 Y115.456 E36.26805
G0 F6000 X111.496 Y114.89
G1 F1200 X115.196 Y118.59 E36.5117
G0 F6000 X115.196 Y118.025
G1 F1200 X111.496 Y114.325 E36.75535
G0 F6000 X111.496 Y113.759
G1 F1200 X115.196 Y117.459 E36.99901
G0 F6000 X115.196 Y116.893
G1 F1200 X111.496 Y113.193 E37.24266
G0 F6000 X111.496 Y112.627
G1 F1200 X115.196 Y116.328 E37.48634
G0 F6000 X115.196 Y115.762
G1 F1200 X111.496 Y112.062 E37.72999
G0 F6000 X111.496 Y111.496
G1 F1200 X115.196 Y115.196 E37.97364
G0 F6000 X115.196 Y114.631
G1 F1200 X111.496 Y110.93 E38.21733
G0 F6000 X111.496 Y110.365
G1 F1200 X115.196 Y114.065 E38.46098
G0 F6000 X115.196 Y113.499
G1 F1200 X111.496 Y109.799 E38.70463
G0 F6000 X111.496 Y109.233
G1 F1200 X115.196 Y112.934 E38.94831
G0 F6000 X115.196 Y112.368
G1 F1200 X111.496 Y108.668 E39.19197
G0 F6000 X111.496 Y108.102
G1 F1200 X115.196 Y111.802 E39.43562
G0 F6000 X115.196 Y111.237
G1 F1200 X111.496 Y107.536 E39.6793
G0 F6000 X111.496 Y106.971
G1 F1200 X115.196 Y110.671 E39.92295
G0 F6000 X115.196 Y110.105
