;FLAVOR:Marlin
;TIME:3294
;Filament used: 0.811034m
;Layer height: 0.16
;MINX:83.692
;MINY:92.696
;MINZ:0.2
;MAXX:136.374
;MAXY:126.593
;MAXZ:17.16
;Generated with Cura_SteamEngine 4.8.0
M140 S60
M105
M190 S60
M104 S205
M105
M109 S205
M82 ;absolute extrusion mode
;Generated with Cura_SteamEngine master
M140 S60
M105
M190 S60
M104 S205
M105
M109 S205
M82 ;absolute extrusion mode
; Ender 3 Custom Start G-code
G28 ; Home all axes
G92 E0 ; Reset Extruder
G1 Z2.0 F3000 ; Move Z Axis up little to prevent scratching of Heat Bed
G1 X0.1 Y20 Z0.3 F5000.0 ; Move to start position
G1 X0.1 Y200.0 Z0.3 F1500.0 E15 ; Draw the first line
G1 X0.4 Y200.0 Z0.3 F5000.0 ; Move to side a little
G1 X0.4 Y20 Z0.3 F1500.0 E30 ; Draw the second line
G92 E0 ; Reset Extruder
G1 Z2.0 F3000 ; Move Z Axis up little to prevent scratching of Heat Bed
; End of custom start GCode
G92 E0
G92 E0
G1 F2700 E-5
;LAYER_COUNT:141
;LAYER:0
M107
G0 F6000 X87.492 Y97.267 Z0.2
;TYPE:SKIRT
G1 F2700 E0
G1 F1200 X88.227 Y96.684 E0.0312
G1 X89.008 Y96.165 E0.06239
G1 X89.831 Y95.715 E0.09359
G1 X90.689 Y95.337 E0.12477
G1 X91.576 Y95.033 E0.15596
G1 X92.486 Y94.806 E0.18715
G1 X93.412 Y94.657 E0.21835
G1 X94.573 Y94.583 E0.25704
G1 X95.806 Y94.569 E0.29805
G1 X96.553 Y94.558 E0.3229
G1 X97.25 Y94.559 E0.34608
G1 X97.836 Y94.576 E0.36558
G1 X100.602 Y94.695 E0.45767
G1 X103.118 Y94.73 E0.54136
G1 X105.648 Y94.693 E0.62551
G1 X108.158 Y94.587 E0.70907
G1 X110.657 Y94.408 E0.7924
G1 X113.155 Y94.16 E0.87589
G1 X115.674 Y93.837 E0.96036
G1 X118.8 Y93.336 E1.06566
G1 X119.589 Y93.195 E1.09232
G1 X119.951 Y93.136 E1.10452
G1 X120.27 Y93.092 E1.11523
G1 X121.475 Y92.941 E1.15562
G1 X122.474 Y92.823 E1.18908
G1 X123.084 Y92.757 E1.20948
G1 X124.02 Y92.696 E1.24068
G1 X124.957 Y92.715 E1.27185
G1 X125.89 Y92.813 E1.30306
G1 X126.811 Y92.991 E1.33425
G1 X127.713 Y93.247 E1.36544
G1 X128.591 Y93.578 E1.39665
G1 X129.436 Y93.983 E1.42782
G1 X130.245 Y94.459 E1.45903
G1 X131.01 Y95.002 E1.49024
G1 X131.725 Y95.608 E1.52141
G1 X132.387 Y96.272 E1.5526
G1 X132.99 Y96.991 E1.58381
G1 X133.529 Y97.758 E1.61499
G1 X134.001 Y98.569 E1.6462
G1 X134.402 Y99.417 E1.67739
G1 X134.729 Y100.296 E1.70859
G1 X134.981 Y101.199 E1.73977
G1 X135.169 Y102.224 E1.77443
G1 X135.217 Y102.592 E1.78677
G1 X135.291 Y103.229 E1.8081
G1 X135.323 Y103.535 E1.81834
G1 X135.374 Y103.991 E1.8336
G1 X135.402 Y104.289 E1.84355
G1 X135.453 Y104.929 E1.86491
G1 X135.694 Y107.472 E1.94987
G1 X136.008 Y110.031 E2.03562
G1 X136.132 Y110.97 E2.06712
G1 X136.299 Y112.364 E2.11382
G1 X136.374 Y113.299 E2.14501
G1 X136.368 Y114.236 E2.17618
G1 X136.283 Y115.17 E2.20737
G1 X136.118 Y116.094 E2.23859
G1 X135.875 Y117 E2.26979
G1 X135.556 Y117.882 E2.30098
G1 X135.163 Y118.733 E2.33216
G1 X134.699 Y119.548 E2.36335
G1 X134.168 Y120.321 E2.39455
G1 X133.572 Y121.045 E2.42574
G1 X132.917 Y121.716 E2.45692
G1 X132.207 Y122.329 E2.48812
G1 X131.447 Y122.879 E2.51932
G1 X130.643 Y123.363 E2.55054
G1 X129.802 Y123.776 E2.5817
G1 X128.927 Y124.116 E2.61292
G1 X128.028 Y124.38 E2.64409
G1 X127.236 Y124.546 E2.671
G1 X127.16 Y124.559 E2.67356
G1 X126.631 Y124.636 E2.69134
G1 X125.585 Y124.763 E2.72639
G1 X124.958 Y124.842 E2.74741
G1 X124.099 Y124.936 E2.77615
G1 X123.533 Y124.983 E2.79504
G1 X123.324 Y124.995 E2.802
G1 X122.081 Y124.996 E2.84334
G1 X121.317 Y124.953 E2.8688
G1 X118.77 Y124.847 E2.95358
G1 X116.254 Y124.814 E3.03727
G1 X113.73 Y124.853 E3.12123
G1 X111.199 Y124.963 E3.20549
G1 X108.688 Y125.143 E3.28922
G1 X106.214 Y125.391 E3.37192
G1 X103.675 Y125.718 E3.45707
G1 X101.191 Y126.11 E3.54071
G1 X99.901 Y126.347 E3.58433
G1 X99.519 Y126.411 E3.59721
G1 X98.244 Y126.549 E3.63987
G1 X98.062 Y126.558 E3.64593
G1 X97.752 Y126.569 E3.65624
G1 X97.193 Y126.58 E3.67484
G1 X96.67 Y126.586 E3.69224
G1 X96.402 Y126.586 E3.70115
G1 X95.6 Y126.593 E3.72783
G1 X94.757 Y126.586 E3.75587
G1 X93.82 Y126.538 E3.78707
G1 X92.891 Y126.41 E3.81826
G1 X91.976 Y126.204 E3.84946
G1 X91.082 Y125.921 E3.88064
G1 X90.215 Y125.563 E3.91184
G1 X89.382 Y125.132 E3.94304
G1 X88.589 Y124.632 E3.97422
G1 X87.841 Y124.066 E4.00542
G1 X87.144 Y123.438 E4.03662
G1 X86.503 Y122.753 E4.06782
G1 X85.923 Y122.016 E4.09902
G1 X85.408 Y121.233 E4.13019
G1 X84.961 Y120.408 E4.1614
G1 X84.586 Y119.548 E4.1926
G1 X84.286 Y118.66 E4.22378
G1 X84.063 Y117.749 E4.25497
G1 X83.918 Y116.822 E4.28618
G1 X83.857 Y116.034 E4.31246
G1 X83.848 Y115.813 E4.31982
G1 X83.839 Y115.464 E4.33143
G1 X83.833 Y114.651 E4.35847
G1 X83.84 Y113.036 E4.41219
G1 X83.813 Y110.486 E4.49701
G1 X83.761 Y109.127 E4.54224
G1 X83.762 Y108.975 E4.5473
G1 X83.713 Y107.729 E4.58877
G1 X83.706 Y107.416 E4.59918
G1 X83.692 Y106.021 E4.64558
G1 X83.694 Y105.537 E4.66168
G1 X83.738 Y104.6 E4.69288
G1 X83.861 Y103.67 E4.72408
G1 X84.064 Y102.754 E4.75529
G1 X84.343 Y101.859 E4.78647
G1 X84.698 Y100.991 E4.81766
G1 X85.125 Y100.156 E4.84885
G1 X85.622 Y99.361 E4.88004
G1 X86.185 Y98.61 E4.91125
G1 X86.81 Y97.911 E4.94244
G1 X87.492 Y97.267 E4.97364
G0 F6000 X87.883 Y97.46
G1 F1200 X88.613 Y96.9 E5.00424
G1 X89.39 Y96.405 E5.03488
G1 X90.206 Y95.979 E5.0655
G1 X91.056 Y95.626 E5.09611
G1 X91.934 Y95.348 E5.12674
G1 X92.832 Y95.147 E5.15735
G1 X93.745 Y95.025 E5.18799
G1 X94.577 Y94.983 E5.21569
G1 X95.818 Y94.969 E5.25697
G1 X96.552 Y94.958 E5.28139
G1 X97.249 Y94.959 E5.30457
G1 X97.815 Y94.975 E5.3234
G1 X98.017 Y94.986 E5.33013
G1 X100.579 Y95.095 E5.41542
G1 X103.117 Y95.13 E5.49984
G1 X105.671 Y95.093 E5.5848
G1 X108.17 Y94.987 E5.66799
G1 X110.686 Y94.807 E5.75189
G1 X113.213 Y94.556 E5.83635
G1 X115.723 Y94.234 E5.92051
G1 X118.887 Y93.727 E6.02709
G1 X119.66 Y93.589 E6.05321
G1 X120.008 Y93.532 E6.06494
G1 X120.32 Y93.489 E6.07541
G1 X121.502 Y93.341 E6.11503
G1 X122.37 Y93.237 E6.14411
G1 X123.127 Y93.155 E6.16943
G1 X124.046 Y93.095 E6.20007
G1 X124.966 Y93.116 E6.23067
G1 X125.881 Y93.217 E6.26129
G1 X126.784 Y93.396 E6.29191
G1 X127.668 Y93.653 E6.32253
G1 X128.526 Y93.986 E6.35314
G1 X129.353 Y94.393 E6.3838
G1 X130.14 Y94.869 E6.41439
G1 X130.884 Y95.412 E6.44502
G1 X131.578 Y96.017 E6.47565
G1 X132.216 Y96.681 E6.50627
G1 X132.794 Y97.397 E6.53688
G1 X133.309 Y98.16 E6.56749
G1 X133.755 Y98.966 E6.59813
G1 X134.129 Y99.807 E6.62875
G1 X134.429 Y100.677 E6.65935
G1 X134.652 Y101.571 E6.69
G1 X134.772 Y102.278 E6.71385
G1 X134.819 Y102.639 E6.72596
G1 X134.893 Y103.271 E6.74712
G1 X134.987 Y104.143 E6.77629
G1 X135.051 Y104.924 E6.80236
G1 X135.297 Y107.522 E6.88915
G1 X135.623 Y110.172 E6.97796
G1 X135.735 Y111.017 E7.00631
G1 X135.902 Y112.412 E7.05304
G1 X135.974 Y113.33 E7.08366
G1 X135.967 Y114.251 E7.1143
G1 X135.879 Y115.167 E7.1449
G1 X135.713 Y116.073 E7.17554
G1 X135.468 Y116.96 E7.20615
G1 X135.147 Y117.823 E7.23677
G1 X134.753 Y118.655 E7.26739
G1 X134.288 Y119.45 E7.29802
G1 X133.756 Y120.201 E7.32863
G1 X133.16 Y120.903 E7.35926
G1 X132.506 Y121.551 E7.38988
G1 X131.798 Y122.14 E7.42051
G1 X131.042 Y122.665 E7.45113
G1 X130.243 Y123.122 E7.48174
G1 X129.407 Y123.509 E7.51238
G1 X128.541 Y123.821 E7.543
G1 X127.652 Y124.057 E7.57359
G1 X127.168 Y124.151 E7.58999
G1 X127.092 Y124.164 E7.59255
G1 X126.583 Y124.239 E7.60967
G1 X125.591 Y124.359 E7.6429
G1 X125.112 Y124.421 E7.65896
G1 X124.055 Y124.538 E7.69434
G1 X123.51 Y124.584 E7.71253
G1 X123.301 Y124.596 E7.71949
G1 X122.104 Y124.597 E7.7593
G1 X121.358 Y124.555 E7.78415
G1 X118.758 Y124.447 E7.8707
G1 X116.253 Y124.414 E7.95403
G1 X113.707 Y124.453 E8.03872
G1 X111.187 Y124.562 E8.12261
G1 X108.655 Y124.744 E8.20704
G1 X106.159 Y124.994 E8.29048
G1 X103.628 Y125.321 E8.37536
G1 X101.141 Y125.713 E8.4591
G1 X99.835 Y125.952 E8.50326
G1 X99.453 Y126.016 E8.51614
G1 X98.225 Y126.149 E8.55722
G1 X98.043 Y126.158 E8.56328
G1 X97.744 Y126.169 E8.57323
G1 X97.188 Y126.18 E8.59173
G1 X96.67 Y126.186 E8.60896
G1 X96.398 Y126.186 E8.61801
G1 X95.603 Y126.193 E8.64445
G1 X94.76 Y126.186 E8.67249
G1 X93.841 Y126.138 E8.7031
G1 X92.929 Y126.011 E8.73372
G1 X92.031 Y125.805 E8.76437
G1 X91.155 Y125.522 E8.79498
G1 X90.307 Y125.164 E8.8256
G1 X89.493 Y124.734 E8.85622
G1 X88.719 Y124.235 E8.88685
G1 X87.992 Y123.67 E8.91747
G1 X87.317 Y123.045 E8.94807
G1 X86.698 Y122.363 E8.9787
G1 X86.14 Y121.631 E9.00931
G1 X85.649 Y120.852 E9.03994
G1 X85.226 Y120.034 E9.07057
G1 X84.877 Y119.182 E9.10119
G1 X84.602 Y118.304 E9.1318
G1 X84.405 Y117.404 E9.16244
G1 X84.287 Y116.491 E9.19306
G1 X84.257 Y116.017 E9.20885
G1 X84.248 Y115.796 E9.21621
G1 X84.239 Y115.46 E9.22739
G1 X84.233 Y114.652 E9.25426
G1 X84.24 Y113.036 E9.30801
G1 X84.213 Y110.467 E9.39346
G1 X84.161 Y109.112 E9.43856
G1 X84.162 Y108.963 E9.44352
G1 X84.113 Y107.713 E9.48513
G1 X84.106 Y107.412 E9.49514
G1 X84.092 Y106.022 E9.54138
G1 X84.094 Y105.538 E9.55747
G1 X84.138 Y104.619 E9.58807
G1 X84.261 Y103.706 E9.61872
G1 X84.463 Y102.808 E9.64933
G1 X84.743 Y101.931 E9.67995
G1 X85.097 Y101.081 E9.71057
G1 X85.524 Y100.265 E9.74121
G1 X86.02 Y99.49 E9.77181
G1 X86.581 Y98.76 E9.80243
G1 X87.204 Y98.082 E9.83306
G1 X87.883 Y97.46 E9.86368
G0 F6000 X88.273 Y97.657
G1 F1200 X88.999 Y97.12 E9.89372
G1 X89.77 Y96.649 E9.92377
G1 X90.579 Y96.249 E9.95378
G1 X91.421 Y95.922 E9.98383
G1 X92.288 Y95.67 E10.01386
G1 X93.174 Y95.496 E10.04389
G1 X94.072 Y95.401 E10.07392
G1 X94.582 Y95.383 E10.0909
G1 X95.828 Y95.369 E10.13234
G1 X96.552 Y95.358 E10.15642
G1 X97.249 Y95.359 E10.17961
G1 X97.793 Y95.374 E10.19771
G1 X97.978 Y95.384 E10.20387
G1 X100.591 Y95.495 E10.29085
G1 X103.118 Y95.53 E10.37491
G1 X105.658 Y95.493 E10.4594
G1 X108.214 Y95.385 E10.54449
G1 X110.721 Y95.206 E10.62809
G1 X113.267 Y94.953 E10.71318
G1 X115.777 Y94.631 E10.79735
G1 X118.899 Y94.13 E10.90252
G1 X119.73 Y93.982 E10.93059
G1 X120.066 Y93.928 E10.94191
G1 X120.37 Y93.886 E10.95212
G1 X121.53 Y93.741 E10.991
G1 X121.924 Y93.694 E11.0042
G1 X122.56 Y93.618 E11.0255
G1 X123.17 Y93.552 E11.04591
G1 X124.071 Y93.495 E11.07593
G1 X124.974 Y93.518 E11.10598
G1 X125.871 Y93.62 E11.136
G1 X126.756 Y93.801 E11.16605
G1 X127.621 Y94.06 E11.19608
G1 X128.46 Y94.395 E11.22613
G1 X129.266 Y94.802 E11.25616
G1 X130.033 Y95.279 E11.2862
G1 X130.754 Y95.822 E11.31622
G1 X131.425 Y96.427 E11.34627
G1 X132.04 Y97.088 E11.3763
G1 X132.594 Y97.802 E11.40636
G1 X133.082 Y98.561 E11.43637
G1 X133.501 Y99.361 E11.46641
G1 X133.848 Y100.195 E11.49645
G1 X134.12 Y101.056 E11.52648
G1 X134.376 Y102.331 E11.56974
G1 X134.422 Y102.686 E11.58164
G1 X134.496 Y103.313 E11.60264
G1 X134.589 Y104.182 E11.63171
G1 X134.65 Y104.925 E11.65651
G1 X134.9 Y107.572 E11.74494
G1 X135.215 Y110.137 E11.83089
G1 X135.338 Y111.064 E11.86199
G1 X135.505 Y112.461 E11.90879
G1 X135.575 Y113.361 E11.93881
G1 X135.566 Y114.265 E11.96888
G1 X135.476 Y115.163 E11.9989
G1 X135.307 Y116.05 E12.02893
G1 X135.061 Y116.919 E12.05897
G1 X134.738 Y117.763 E12.08903
G1 X134.342 Y118.575 E12.11907
G1 X133.876 Y119.348 E12.14909
G1 X133.344 Y120.077 E12.17911
G1 X132.749 Y120.757 E12.20916
G1 X132.096 Y121.381 E12.2392
G1 X131.391 Y121.945 E12.26923
G1 X130.638 Y122.444 E12.29928
G1 X129.844 Y122.875 E12.32933
G1 X129.015 Y123.234 E12.35937
G1 X128.158 Y123.518 E12.3894
G1 X127.101 Y123.757 E12.42544
G1 X127.025 Y123.77 E12.42801
G1 X126.534 Y123.842 E12.44451
G1 X125.506 Y123.967 E12.47896
G1 X125.061 Y124.024 E12.49388
G1 X124.012 Y124.14 E12.52898
G1 X123.487 Y124.184 E12.54651
G1 X123.278 Y124.196 E12.55347
G1 X122.126 Y124.197 E12.59178
G1 X121.398 Y124.156 E12.61604
G1 X118.778 Y124.047 E12.70325
G1 X116.253 Y124.014 E12.78724
G1 X113.684 Y124.053 E12.8727
G1 X111.178 Y124.162 E12.95613
G1 X108.62 Y124.345 E13.04142
G1 X106.104 Y124.598 E13.12553
G1 X103.586 Y124.922 E13.20997
G1 X101.085 Y125.317 E13.29418
G1 X99.929 Y125.53 E13.33328
G1 X99.386 Y125.622 E13.35159
G1 X98.205 Y125.75 E13.3911
G1 X98.023 Y125.759 E13.39717
G1 X97.735 Y125.769 E13.40675
G1 X97.182 Y125.78 E13.42515
G1 X96.67 Y125.786 E13.44218
G1 X96.394 Y125.786 E13.45136
G1 X95.606 Y125.793 E13.47757
G1 X94.763 Y125.786 E13.50561
G1 X93.861 Y125.738 E13.53565
G1 X92.967 Y125.611 E13.56568
G1 X92.088 Y125.405 E13.59571
G1 X91.23 Y125.123 E13.62575
G1 X90.401 Y124.765 E13.65578
G1 X89.606 Y124.336 E13.68583
G1 X88.853 Y123.838 E13.71586
G1 X88.146 Y123.276 E13.74589
G1 X87.493 Y122.653 E13.77591
G1 X86.896 Y121.974 E13.80598
G1 X86.362 Y121.246 E13.83601
G1 X85.895 Y120.473 E13.86605
G1 X85.498 Y119.662 E13.89608
G1 X85.174 Y118.819 E13.92612
G1 X84.926 Y117.951 E13.95615
G1 X84.756 Y117.064 E13.98618
G1 X84.656 Y116.001 E14.0217
G1 X84.647 Y115.78 E14.02905
G1 X84.639 Y115.457 E14.0398
G1 X84.633 Y114.654 E14.06651
G1 X84.64 Y113.034 E14.12039
G1 X84.613 Y110.485 E14.20517
G1 X84.56 Y109.097 E14.25137
G1 X84.561 Y108.93 E14.25693
G1 X84.513 Y107.698 E14.29794
G1 X84.506 Y107.407 E14.30762
G1 X84.492 Y106.024 E14.35362
G1 X84.494 Y105.54 E14.36972
G1 X84.538 Y104.638 E14.39975
G1 X84.661 Y103.743 E14.4298
G1 X84.863 Y102.863 E14.45983
G1 X85.142 Y102.004 E14.48987
G1 X85.496 Y101.173 E14.51991
G1 X85.922 Y100.377 E14.54994
G1 X86.417 Y99.621 E14.58
G1 X86.977 Y98.913 E14.61002
G1 X87.597 Y98.256 E14.64006
G1 X88.273 Y97.657 E14.67011
G1 F2700 E9.67011
;MESH:workbench.stl
G0 F6000 X95.48 Y113.215
G0 X95.807 Y114.247
G0 X97.03 Y114.464
;TYPE:WALL-INNER
G1 F2700 E14.67011
G1 F1200 X97.016 Y114.498 E14.67133
G1 X97.003 Y114.526 E14.67236
G1 X97.069 Y114.713 E14.67895
G1 X97.031 Y114.803 E14.6822
G1 X96.973 Y114.939 E14.68712
G1 X96.983 Y114.959 E14.68786
G1 X96.994 Y114.981 E14.68868
G1 X96.974 Y114.981 E14.68873
G1 X96.939 Y114.982 E14.68914
G1 X96.615 Y114.947 E14.69721
G1 X96.522 Y114.963 E14.70035
G1 X96.348 Y114.9 E14.70651
G1 X96.134 Y114.97 E14.714
G1 X95.84 Y114.918 E14.72393
G1 X95.667 Y114.988 E14.73013
G1 X95.479 Y114.973 E14.73641
G1 X95.438 Y114.687 E14.74602
G1 X95.477 Y114.532 E14.75133
G1 X95.518 Y114.544
G1 X95.84 Y114.427 E14.76273
G1 X96.044 Y114.425 E14.76951
G1 X96.271 Y114.491 E14.77737
G1 X96.573 Y114.427 E14.78764
G1 X96.881 Y114.469 E14.79798
G1 X96.978 Y114.482 E14.8007
G1 X97.03 Y114.464 E14.80121
G0 F6000 X97.477 Y114.006
;TYPE:WALL-OUTER
G1 F1200 X97.467 Y114.335 E14.81216
G1 X97.478 Y114.439 E14.81563
G1 X97.433 Y114.542 E14.81937
G1 X97.498 Y114.726 E14.82586
G1 X97.414 Y114.924 E14.83302
G1 X97.515 Y115.123 E14.84044
G1 X97.374 Y115.357 E14.84953
G1 X97.24 Y115.323 E14.85412
G1 X97.095 Y115.38 E14.85931
G1 X96.917 Y115.382 E14.86523
G1 X96.627 Y115.351 E14.87493
G1 X96.485 Y115.375 E14.87972
G1 X96.342 Y115.323 E14.88478
G1 X96.164 Y115.382 E14.89102
G1 X95.883 Y115.332 E14.90051
G1 X95.729 Y115.394 E14.90603
G1 X95.279 Y115.359 E14.92104
G1 X95.068 Y115.359 E14.92806
G1 X95.038 Y115.27 E14.93118
G1 X95.066 Y115.157 E14.93506
G1 X95.044 Y115.025 E14.93951
G1 X95.071 Y114.947 E14.94225
G1 X95.031 Y114.668 E14.95163
G1 X95.082 Y114.461 E14.95872
G1 X95.03 Y114.182 E14.96816
G1 X95.029 Y114.089 E14.97125
G1 X95.221 Y114.038 E14.97786
G1 X95.506 Y114.123 E14.98775
G1 X95.768 Y114.028 E14.99702
G1 X96.1 Y114.024 E15.00806
G1 X96.287 Y114.079 E15.01454
G1 X96.557 Y114.022 E15.02372
G1 X96.938 Y114.073 E15.03651
G1 X97.097 Y114.019 E15.04209
G1 X97.296 Y114.056 E15.04883
G1 X97.477 Y114.006 E15.05507
G0 F6000 X97.274 Y114.245
;TYPE:SKIN
G1 F1200 X96.847 Y114.666 E15.05834
G1 X95.752 Y114.702 E15.0643
G1 X95.328 Y114.278 E15.06756
G1 X95.285 Y115.084 E15.07196
G0 F6000 X95.645 Y114.726
G1 F2700 E10.07196
G0 F6000 X96.07 Y114.243
G0 X96.059 Y113.16
G0 X96.862 Y107.953
G0 X96.997 Y106.879
G0 X96.883 Y106.647
;TYPE:WALL-INNER
G1 F2700 E15.07196
G1 F1200 X96.662 Y106.607 E15.07943
G1 X96.641 Y106.619 E15.08023
G1 X96.456 Y106.727 E15.08736
G1 X95.929 Y106.731 E15.10488
G1 X95.736 Y106.652 E15.11182
G1 X95.639 Y106.677 E15.11515
G1 X95.556 Y106.697 E15.11799
G1 X95.4 Y106.617 E15.12382
G1 X95.308 Y106.649 E15.12706
G1 X95.308 Y106.621
G1 X95.306 Y106.535 E15.12992
G1 X95.296 Y106.262 E15.13901
G1 X95.293 Y106.185 E15.14157
G1 X95.321 Y106.174 E15.14257
G1 X95.645 Y106.249 E15.15049
G1 X95.789 Y106.178 E15.15583
G1 X96.017 Y106.21 E15.16348
G1 X96.406 Y106.17 E15.17649
G1 X96.582 Y106.228 E15.18265
G1 X96.605 Y106.235 E15.18345
G1 X96.826 Y106.181 E15.19102
